!!!!SEGMENT: pl-cz--iii-624--001-003_raszek-waclaw--missa-in-f-domine-deus.krn
!!!cenid: 17xx:1061
!!!COM: Raszek, Wacław
!!!COM-rismID: pe30020314
!!!CDT: <1848->1848
!!!CNT:
!!!OPR: Missa in F
!!!OTL: Domine Deus
!!!OMV: 003
!!!PDT:
!!!AGN: Sacred; Mass
!!!SMS-siglum: PL-CZ
!!!SMS-shelfmark: III-624
!!!SMS-shelfwork: 001-003 M
!!!SMS-variant:
!!!SMS-altvar:
!!!NIFC-rismSourceID: 300001049
!!!NIFC-rismChildID: 300001049
!!!NIFC-islandoraID: pl-cz:39539
!!!URL-pdf-islandora: https://repozytorium.nifc.pl/islandora/object/pl-cz%3A39539/datastream/PDF/view
!!!URL-scan:
!!!ONB-nifc: UWAGA: części Mszy: Kyrie, Gloria, Domine Deus, Cum sancto spiritu, Credo, Et incarnatus, Et resurrexit, Sanctus, Benedictus, Agnus Dei, Dona nobis. Uwaga: partia violino principale tylko w cz. Benedictus
!!!AIN: 1 alto 1 bass 2 cor 2 flt 1 organ 1 soprn 1 tenor 1 viola 2 violn
!!!key: B-
!!!OMD:
!!!OMD-mod: Andante
!!!filter-modern: sic -sq | shed -e "s/TX(.*):t=P:/tx$1:t=P:/LG" | shed -e "s/yy//" | shed -k -e "s/[<>]//g" | shed -e "s/^(\d+[\/\\]right)/$1yy/I;s/^(\d+[\/\\]left)/$1yy/I" | shed -e "s/(LO:DY.*):t=(.*$)/$1:T=$2/L; s/LO:DY(.*)(:a:)(.*)/LO:dy:$1$2$3/L; s/LO:DY(.*)(:b:)(.*)/LO:dy:$1$2$3/L; s/LO:DY(.*)(:[ab])$/LO:dy:$1$2/L; s/LO:DY(.*)(:rj:)(.*)/LO:dy:$1$2$3/L" | shed -ke "s/\(y(?!y)/(/" | shed -k -e "s/LO:N:vis/LO:n:vis:/L" | shed -e "s/:rj/:RJ/L" | shed -e "s/LO:DY:(a|b|rj)/LO:dy:$1/L" | shed -e "s/-//B" | modori -m | tie -s | autostem -r | humtr -p
**kern	**fba	**dynam	**kern	**dynam	**kern	**dynam	**kern	**dynam	**kern	**kern	**kern	**text	**dynam	**kern	**text	**dynam	**kern	**kern	**kern	**dynam	**kern	**dynam
*	*	*	*group4	*	*group4	*	*group4	*	*group3	*group3	*group3	*	*	*group3	*	*	*group2	*group2	*group1	*	*group1	*
*part12	*	*part12	*part11	*part11	*part10	*part10	*part9	*part9	*part8	*part7	*part6	*part6	*	*part5	*part5	*part5	*part4	*part3	*part2	*part2	*part1	*part1
*staff12	*	*	*staff11	*	*staff10	*	*staff9	*	*staff8	*staff7	*staff6	*staff6	*	*staff5	*staff5	*	*staff4	*staff3	*staff2	*	*staff1	*
*I"Organo	*	*	*I"Alto Viola.	*	*I"Violino Secondo.	*	*I"Violino Primo.	*	*I"Basso	*I"Tenore.	*I"Alto.	*	*	*I"Canto.	*	*	*I"Corno Secondo in F	*I"Corno Primo in F	*I"Flauto Secondo	*	*I"Flauto Primo	*
*	*	*	*mI"Viola	*	*mI"Violino II	*	*mI"Violino I	*	*	*mI"Tenore	*mI"Alto	*	*	*mI"Soprano	*	*	*mI"Corno II in F	*mI"Corno I in F	*mI"Flauto II	*	*mI"Flauto I	*
*I'org	*	*	*I'a-vla	*	*I'vl 2	*	*I'vl 1	*	*I'B	*I'T	*I'A	*	*	*I'S	*	*	*I'cor 2	*I'cor 1	*I'fl 2	*	*I'fl 1	*
*Iorgan	*	*	*Iviola	*	*Ivioln	*	*Ivioln	*	*Ibass	*Itenor	*Ialto	*	*	*Isoprn	*	*	*Icor	*Icor	*Iflt	*	*Iflt	*
*ICklav	*	*	*ICstr	*	*ICstr	*	*ICstr	*	*ICvox	*ICvox	*ICvox	*	*	*ICvox	*	*	*ICbras	*ICbras	*ICww	*	*ICww	*
*IGcont	*	*	*	*	*	*	*	*	*	*	*IGsolo	*	*	*IGsolo	*	*	*	*	*	*	*	*
*clefF4	*	*	*clefC3	*	*clefG2	*	*clefG2	*	*clefF4	*clefC4	*clefC3	*	*	*clefC1	*	*	*clefG2	*clefG2	*clefG2	*	*clefG2	*
*	*	*	*	*	*	*	*	*	*	*mclefGv2	*mclefG2	*	*	*mclefG2	*	*	*	*	*	*	*	*
*	*	*	*	*	*	*	*	*	*	*	*	*	*	*	*	*	*ITrd4c7	*ITrd4c7	*	*	*	*
*k[b-e-]	*	*	*k[b-e-]	*	*k[b-e-]	*	*k[b-e-]	*	*k[b-e-]	*k[b-e-]	*k[b-e-]	*	*	*k[b-e-]	*	*	*k[b-e-]	*k[b-e-]	*k[b-e-]	*	*k[b-e-]	*
*B-:	*	*	*B-:	*	*B-:	*	*B-:	*	*B-:	*B-:	*B-:	*	*	*B-:	*	*	*B-:	*B-:	*B-:	*	*B-:	*
*M2/4	*	*	*M2/4	*	*M2/4	*	*M2/4	*	*M2/4	*M2/4	*M2/4	*	*	*M2/4	*	*	*M2/4	*M2/4	*M2/4	*	*M2/4	*
*	*	*	*	*	*	*	*	*	*tacet	*tacet	*	*	*	*	*	*	*tacet	*tacet	*	*	*	*
!LO:TX:a:i:t=Solo.:mod=	!	!	!	!	!	!	!	!	!	!	!	!	!	!	!	!	!	!	!	!	!	!
!LO:TX:a:t=andan&colon;:mod=	!	!	!LO:TX:a:i:t=andante.:mod=	!	!LO:TX:a:i:t=andante.:mod=	!	!LO:TX:a:i:t=And&colon;:mod=	!	!LO:TX:a:i:t=Domine\nTacet.:mod=	!LO:TX:a:i:t=Domine Tacet.:mod=	!LO:TX:a:i:t=andante:mod=	!	!	!	!	!	!LO:TX:a:i:t=Domine Tacet.:mod=	!LO:TX:a:i:t=Domine Tacet.:mod=	!LO:TX:t=P:problem=brak przedtaktu	!	!LO:TX:t=P:problem=brak przedtaktu	!
!	!	!	!	!	!	!	!	!LO:MO:null:mod=f	!	!	!	!	!	!LO:TX:t=P:problem=znaki[e- b-]	!	!	!	!	!	!	!	!
8r	.	.	8r	.	8r	.	16ff\LL	.	8ryy	8ryy	8r	.	.	8r	.	.	8ryy	8ryy	8ryy	.	8ryy	.
!	!	!	!	!	!	!	!	!LO:DY:a	!	!	!	!	!	!	!	!	!	!	!	!	!	!
!	!	!	!	!	!	!	!	!LO:MO:null:mod=.	!	!	!	!	!	!	!	!	!	!	!	!	!	!
.	.	.	.	.	.	.	16dd\JJ	f	.	.	.	.	.	.	.	.	.	.	.	.	.	.
=1	=1	=1	=1	=1	=1	=1	=1	=1	=1	=1	=1	=1	=1	=1	=1	=1	=1	=1	=1	=1	=1	=1
!	!	!LO:MO:null:mod=!LO&colon;DY&colon;ed=brack	!	!LO:MO:null:mod=!LO&colon;DY&colon;ed=brack	!	!LO:MO:null:mod=!LO&colon;DY&colon;ed=brack	!	!	!	!	!	!	!	!	!	!	!	!	!	!	!	!
!	!	!	!	!	!	!	!	!	!	!	!	!	!	!	!	!	!	!	!	!	!	!
!LO:TX:t=P:problem=mixed beam	!	!LO:MO:null:mod=f	!	!LO:MO:null:mod=f	!	!LO:MO:null:mod=f	!	!	!	!	!LO:TX:b:t=25:color=grey:mod=	!	!	!	!	!	!	!	!LO:TX:b:t=6:mod=	!	!LO:TX:a:t=6:color=blue:mod=	!
8B-\L	.	.	8B-/L	.	8d/L	.	8.b-\L	.	2ryy	2ryy	0r	.	.	0r	.	.	2ryy	2ryy	0r	.	0r	.
8BB-/J	.	.	8B-/J	.	8d/J	.	.	.	.	.	.	.	.	.	.	.	.	.	.	.	.	.
.	.	.	.	.	.	.	16dd\Jk	.	.	.	.	.	.	.	.	.	.	.	.	.	.	.
8r	.	.	8r	.	16d/LL	.	16ff\LL	.	.	.	.	.	.	.	.	.	.	.	.	.	.	.
.	.	.	.	.	16g/	.	16bb-\	.	.	.	.	.	.	.	.	.	.	.	.	.	.	.
8E-\	.	.	8e-\	.	16f/	.	16aa\	.	.	.	.	.	.	.	.	.	.	.	.	.	.	.
.	.	.	.	.	16e-/JJ	.	16gg\JJ	.	.	.	.	.	.	.	.	.	.	.	.	.	.	.
=2	=2	=2	=2	=2	=2	=2	=2	=2	=2	=2	=2	=2	=2	=2	=2	=2	=2	=2	=2	=2	=2	=2
!LO:TX:t=P:problem=mixed beam	!	!	!LO:TX:t=P:problem=mixed beam	!	!	!	!	!	!	!	!	!	!	!	!	!	!	!	!	!	!	!
8B-\L	.	.	8b-\L	.	8e-/L	.	8ggT\L	.	2ryy	2ryy	.	.	.	.	.	.	2ryy	2ryy	.	.	.	.
16BB-/L	.	.	16B-/L	.	16d/L	.	8ff\J	.	.	.	.	.	.	.	.	.	.	.	.	.	.	.
16C/JJ	.	.	16c/JJ	.	16e-/JJ	.	.	.	.	.	.	.	.	.	.	.	.	.	.	.	.	.
8D\L	6	.	8d\L	.	8f/L	.	16r	.	.	.	.	.	.	.	.	.	.	.	.	.	.	.
.	.	.	.	.	.	.	16b-\LL	.	.	.	.	.	.	.	.	.	.	.	.	.	.	.
8D\J	.	.	8d\J	.	8f/J	.	16b-\	.	.	.	.	.	.	.	.	.	.	.	.	.	.	.
.	.	.	.	.	.	.	16b-\JJ	.	.	.	.	.	.	.	.	.	.	.	.	.	.	.
=3	=3	=3	=3	=3	=3	=3	=3	=3	=3	=3	=3	=3	=3	=3	=3	=3	=3	=3	=3	=3	=3	=3
8E-\L	6	.	8e-\L	.	8g/L	.	(16bn\LL	.	2ryy	2ryy	.	.	.	.	.	.	2ryy	2ryy	.	.	.	.
.	.	.	.	.	.	.	16cc\)	.	.	.	.	.	.	.	.	.	.	.	.	.	.	.
8E-\	.	.	8c\	.	8g/J	.	16ee-'\	.	.	.	.	.	.	.	.	.	.	.	.	.	.	.
.	.	.	.	.	.	.	16cc'\JJ	.	.	.	.	.	.	.	.	.	.	.	.	.	.	.
!	!	!	!	!	!LO:TX:t=P:problem=mixed beam	!	!	!	!	!	!	!	!	!	!	!	!	!	!	!	!	!
8F\J	3	.	8c\J	.	8c/L	.	(16b-X\LL	.	.	.	.	.	.	.	.	.	.	.	.	.	.	.
.	.	.	.	.	.	.	16a\)	.	.	.	.	.	.	.	.	.	.	.	.	.	.	.
8r	.	.	8r	.	16ee-\L	.	(16gg\	.	.	.	.	.	.	.	.	.	.	.	.	.	.	.
.	.	.	.	.	16dd\JJ	.	16ff\JJ)	.	.	.	.	.	.	.	.	.	.	.	.	.	.	.
=4	=4	=4	=4	=4	=4	=4	=4	=4	=4	=4	=4	=4	=4	=4	=4	=4	=4	=4	=4	=4	=4	=4
8A\L	6	.	8A/L	.	8.f/L	.	8.ff\L	.	2ryy	2ryy	.	.	.	.	.	.	2ryy	2ryy	.	.	.	.
!	!	!	!LO:SIC:v:s=8A	!	!	!	!	!	!	!	!	!	!	!	!	!	!	!	!	!	!	!
8F\	7	.	8B-/	.	.	.	.	.	.	.	.	.	.	.	.	.	.	.	.	.	.	.
.	.	.	.	.	16cc/Jk	.	16ee-\Jk	.	.	.	.	.	.	.	.	.	.	.	.	.	.	.
8B-\	.	.	8B-/	.	16cc\LL	.	(16ee-\LL	.	.	.	.	.	.	.	.	.	.	.	.	.	.	.
.	.	.	.	.	16b-\J	.	16dd\	.	.	.	.	.	.	.	.	.	.	.	.	.	.	.
8D\J	6	.	8d/J	.	8b-\J	.	16ff\)	.	.	.	.	.	.	.	.	.	.	.	.	.	.	.
.	.	.	.	.	.	.	16bb-\JJ	.	.	.	.	.	.	.	.	.	.	.	.	.	.	.
=5	=5	=5	=5	=5	=5	=5	=5	=5	=5	=5	=5	=5	=5	=5	=5	=5	=5	=5	=5	=5	=5	=5
!LO:TX:t=P:problem=mixed beam	!	!	!LO:TX:t=P:problem=mixed beam	!	!	!	!	!	!	!	!	!	!	!	!	!	!	!	!	!	!	!
.	.	.	.	.	.	.	16qqaa/	.	.	.	.	.	.	.	.	.	.	.	.	.	.	.
8E-\L	.	.	8e-\L	.	8b-/L	.	8gg\L	.	2ryy	2ryy	0r	.	.	0r	.	.	2ryy	2ryy	1r	.	1r	.
8E-\	.	.	8e-\	.	8b-/	.	16ff\L	.	.	.	.	.	.	.	.	.	.	.	.	.	.	.
.	.	.	.	.	.	.	16ee-\JJ	.	.	.	.	.	.	.	.	.	.	.	.	.	.	.
8F\	.	.	8f\	.	8b-/	.	8dd\L	.	.	.	.	.	.	.	.	.	.	.	.	.	.	.
8FF/J	.	.	8F/J	.	8a/J	.	8ccT\J	.	.	.	.	.	.	.	.	.	.	.	.	.	.	.
=6	=6	=6	=6	=6	=6	=6	=6	=6	=6	=6	=6	=6	=6	=6	=6	=6	=6	=6	=6	=6	=6	=6
8BB-/L	.	.	8B-/L	.	16b-/LL	.	16b-/LL	.	2ryy	2ryy	.	.	.	.	.	.	2ryy	2ryy	.	.	.	.
.	.	.	.	.	32f/L	.	32f/L	.	.	.	.	.	.	.	.	.	.	.	.	.	.	.
!	!	!	!	!	!	!	!LO:SIC:v:s=32e-J	!	!	!	!	!	!	!	!	!	!	!	!	!	!	!
.	.	.	.	.	32e-/J	.	32d/J	.	.	.	.	.	.	.	.	.	.	.	.	.	.	.
8FF/	.	.	8F/	.	16d/	.	16d/	.	.	.	.	.	.	.	.	.	.	.	.	.	.	.
.	.	.	.	.	16d/JJ	.	16d/JJ	.	.	.	.	.	.	.	.	.	.	.	.	.	.	.
!	!	!	!	!	!	!	!LO:LB:g=original	!	!	!	!	!	!	!	!	!	!	!	!	!	!	!
8BB-/J	.	.	8B-/J	.	8d/	.	8b-/	.	.	.	.	.	.	.	.	.	.	.	.	.	.	.
8r	.	.	8r	.	8r	.	8r	.	.	.	.	.	.	.	.	.	.	.	.	.	.	.
!	!	!	!LO:LB:g=original	!	!	!	!	!	!	!	!	!	!	!	!	!	!	!	!	!	!	!
=7	=7	=7	=7	=7	=7	=7	=7	=7	=7	=7	=7	=7	=7	=7	=7	=7	=7	=7	=7	=7	=7	=7
*tremolo	*	*	*	*	*	*	*	*	*	*	*	*	*	*	*	*	*	*	*2\right	*	*2\right	*
!	!	!LO:MO:null:mod=!LO&colon;DY&colon;ed=brack	!	!	!	!	!	!	!	!	!	!	!	!	!	!	!	!	!	!	!	!
!	!	!	!	!	!	!	!	!	!	!	!	!	!	!	!	!	!	!	!	!	!	!
!	!	!LO:MO:null:mod=p	!	!LO:DY:a:t=po	!	!LO:DY:a:t=po.	!	!LO:DY:rj:a:t=p&colon;	!	!	!	!	!	!	!	!	!	!	!	!LO:DY:t=po	!	!LO:DY:t=p.
8BB-/L	7- 5	.	8d\L	p	(16d/LL	p	(16cc/LL	p	2ryy	2ryy	.	.	.	.	.	.	2ryy	2ryy	2ff\	p	2aa-X\	p
!	!	!	!	!	!	!	!LO:SIC:v:s=16a-/)	!	!	!	!	!	!	!	!	!	!	!	!	!	!	!
.	.	.	.	.	16f/)	.	16an/)	.	.	.	.	.	.	.	.	.	.	.	.	.	.	.
!	!	!	!	!	!	!	!LO:SIC:v:s=16a-/|	!	!	!	!	!	!	!	!	!	!	!	!	!	!	!
8BB-/	.	.	8d\	.	16f/|	.	16a/|	.	.	.	.	.	.	.	.	.	.	.	.	.	.	.
!	!	!	!	!	!	!	!LO:SIC:v:s=16a-/JJ|	!	!	!	!	!	!	!	!	!	!	!	!	!	!	!
.	.	.	.	.	16f/JJ|	.	16a/JJ|	.	.	.	.	.	.	.	.	.	.	.	.	.	.	.
8BB-/	.	.	8d\	.	(16d/LL	.	(16f/LL	.	.	.	.	.	.	.	.	.	.	.	.	.	.	.
.	.	.	.	.	16f/)	.	16a-X/)	.	.	.	.	.	.	.	.	.	.	.	.	.	.	.
8BB-/J	.	.	8d\J	.	16f/	.	16a-/|	.	.	.	.	.	.	.	.	.	.	.	.	.	.	.
.	.	.	.	.	16f/JJ	.	16a-/JJ|	.	.	.	.	.	.	.	.	.	.	.	.	.	.	.
!	!	!	!	!	!LO:LB:g=original	!	!	!	!	!	!	!	!	!	!	!	!	!	!	!	!	!
=8	=8	=8	=8	=8	=8	=8	=8	=8	=8	=8	=8	=8	=8	=8	=8	=8	=8	=8	=8	=8	=8	=8
*	*	*	*tremolo	*	*	*	*	*	*	*	*	*	*	*	*	*	*	*	*	*	*	*
!	!	!	!	!	!	!	!LO:SIC:s=(16f#LL	!	!	!	!	!	!	!	!	!	!	!	!	!	!	!
8BB-/L	6 4	.	8B-/L	.	(16d/LL	.	16f#X/LL	.	2ryy	2ryy	.	.	.	.	.	.	2ryy	2ryy	[2ee-\	.	2gg\	.
!	!	!	!	!	!	!	!LO:SIC:s=16g)	!	!	!	!	!	!	!	!	!	!	!	!	!	!	!
.	.	.	.	.	16e-/)	.	16g/	.	.	.	.	.	.	.	.	.	.	.	.	.	.	.
8BB-/	.	.	8B-/	.	16e-/|	.	16g/|	.	.	.	.	.	.	.	.	.	.	.	.	.	.	.
.	.	.	.	.	16e-/JJ|	.	16g/JJ|	.	.	.	.	.	.	.	.	.	.	.	.	.	.	.
8BB-/	.	.	8B-/	.	(16G/LL	.	(16e-/LL	.	.	.	.	.	.	.	.	.	.	.	.	.	.	.
.	.	.	.	.	16e-/)	.	16g/)	.	.	.	.	.	.	.	.	.	.	.	.	.	.	.
8BB-/J	.	.	8B-/J	.	16e-/|	.	16g/|	.	.	.	.	.	.	.	.	.	.	.	.	.	.	.
.	.	.	.	.	16e-/JJ|	.	16g/JJ|	.	.	.	.	.	.	.	.	.	.	.	.	.	.	.
=9	=9	=9	=9	=9	=9	=9	=9	=9	=9	=9	=9	=9	=9	=9	=9	=9	=9	=9	=9	=9	=9	=9
8BB-/L	7n 2	.	8F/L	.	(16c/LL	.	(16b-/LL	.	2ryy	2ryy	0r	.	.	0r	.	.	2ryy	2ryy	2ee-\]	.	2aan\	.
.	.	.	.	.	16e-/)	.	16an/)	.	.	.	.	.	.	.	.	.	.	.	.	.	.	.
8BB-/	.	.	8F/	.	16e-/|	.	16a/|	.	.	.	.	.	.	.	.	.	.	.	.	.	.	.
.	.	.	.	.	16e-/JJ|	.	16a/JJ|	.	.	.	.	.	.	.	.	.	.	.	.	.	.	.
!	!	!	!	!	!	!	!LO:TX:t=P:problem=mixed beam	!	!	!	!	!	!	!	!	!	!	!	!	!	!	!
!	!	!	!	!	!	!	!LO:SIC:s=(16ee-LL	!	!	!	!	!	!	!	!	!	!	!	!	!	!	!
8BB-/	.	.	8F/	.	(16c/LL	.	16ee-\LL	.	.	.	.	.	.	.	.	.	.	.	.	.	.	.
!	!	!	!	!	!	!	!LO:SIC:s=16a)	!	!	!	!	!	!	!	!	!	!	!	!	!	!	!
.	.	.	.	.	16e-/)	.	16a/	.	.	.	.	.	.	.	.	.	.	.	.	.	.	.
8BB-/J	.	.	8F/J	.	16e-/|	.	16a/	.	.	.	.	.	.	.	.	.	.	.	.	.	.	.
.	.	.	.	.	16e-/JJ|	.	16a/JJ	.	.	.	.	.	.	.	.	.	.	.	.	.	.	.
=10	=10	=10	=10	=10	=10	=10	=10	=10	=10	=10	=10	=10	=10	=10	=10	=10	=10	=10	=10	=10	=10	=10
!	!	!	!	!	!	!	!LO:SIC:s=(16ccLL	!	!	!	!	!	!	!	!	!	!	!	!	!	!	!
8BB-/L	8n 3	.	8B-/L	.	(16e-/LL	.	16cc\LL	.	2ryy	2ryy	.	.	.	.	.	.	2ryy	2ryy	2dd\	.	2bb-\	.
!	!	!	!	!	!	!	!LO:SIC:s=16b-)	!	!	!	!	!	!	!	!	!	!	!	!	!	!	!
.	.	.	.	.	16d/)	.	16b-\	.	.	.	.	.	.	.	.	.	.	.	.	.	.	.
8BB-/	.	.	8B-/	.	16d/|	.	16b-\	.	.	.	.	.	.	.	.	.	.	.	.	.	.	.
.	.	.	.	.	16d/JJ|	.	16b-\JJ	.	.	.	.	.	.	.	.	.	.	.	.	.	.	.
!	!	!	!	!	!	!	!LO:SIC:s=(16a-LL	!	!	!	!	!	!	!	!	!	!	!	!	!	!	!
8BB-/	.	.	8B-/	.	(16c/LL	.	16a/LL	.	.	.	.	.	.	.	.	.	.	.	.	.	.	.
!	!	!	!	!	!	!	!LO:SIC:s=16b-)	!	!	!	!	!	!	!	!	!	!	!	!	!	!	!
.	.	.	.	.	16d/)	.	16b-/	.	.	.	.	.	.	.	.	.	.	.	.	.	.	.
8BB-/J	.	.	8B-/J	.	16d/	.	16b-/	.	.	.	.	.	.	.	.	.	.	.	.	.	.	.
.	.	.	.	.	16d/JJ	.	16b-/JJ	.	.	.	.	.	.	.	.	.	.	.	.	.	.	.
!LO:LB:g=original	!	!	!	!	!	!	!	!	!	!	!	!	!	!	!	!	!	!	!	!	!	!
=11	=11	=11	=11	=11	=11	=11	=11	=11	=11	=11	=11	=11	=11	=11	=11	=11	=11	=11	=11	=11	=11	=11
*	*	*	*2\right	*	*	*	*	*	*	*	*	*	*	*	*	*	*	*	*	*	*	*
!	!	!	!	!	!	!	!LO:SIC:s=(16b-LL	!	!	!	!	!	!	!	!	!	!	!	!	!	!	!
8BB-/L	6 4	.	8d\L	.	(16d/LL	.	16b-/LL	.	2ryy	2ryy	.	.	.	.	.	.	2ryy	2ryy	2ff\	.	2aa-X\	.
!	!	!	!	!	!	!	!LO:SIC:s=16a-)	!	!	!	!	!	!	!	!	!	!	!	!	!	!	!
.	.	.	.	.	16f/)	.	16a-X/	.	.	.	.	.	.	.	.	.	.	.	.	.	.	.
8BB-/	.	.	8d\	.	16f/|	.	16a-/	.	.	.	.	.	.	.	.	.	.	.	.	.	.	.
.	.	.	.	.	16f/JJ|	.	16a-/JJ	.	.	.	.	.	.	.	.	.	.	.	.	.	.	.
!	!	!	!	!	!	!	!LO:SIC:s=(16fLL	!	!	!	!	!	!	!	!	!	!	!	!	!	!	!
8BB-/	.	.	8d\	.	(16d/LL	.	16f/LL	.	.	.	.	.	.	.	.	.	.	.	.	.	.	.
!	!	!	!	!	!	!	!LO:SIC:s=16a-)	!	!	!	!	!	!	!	!	!	!	!	!	!	!	!
.	.	.	.	.	16f/)	.	16a-/	.	.	.	.	.	.	.	.	.	.	.	.	.	.	.
8BB-/J	.	.	8d\J	.	16f/|	.	16a-/	.	.	.	.	.	.	.	.	.	.	.	.	.	.	.
.	.	.	.	.	16f/JJ|	.	16a-/JJ	.	.	.	.	.	.	.	.	.	.	.	.	.	.	.
=12	=12	=12	=12	=12	=12	=12	=12	=12	=12	=12	=12	=12	=12	=12	=12	=12	=12	=12	=12	=12	=12	=12
!	!	!	!	!	!	!	!LO:SIC:s=(16fLL	!	!	!	!	!	!	!	!	!	!	!	!	!	!	!
8BB-/L	.	.	8B-/L	.	(16d/LL	.	16fn/LL	.	2ryy	2ryy	.	.	.	.	.	.	2ryy	2ryy	2ee-\	.	2gg\	.
!	!	!	!	!	!	!	!LO:SIC:s=16g)	!	!	!	!	!	!	!	!	!	!	!	!	!	!	!
.	.	.	.	.	16e-/)	.	16g/	.	.	.	.	.	.	.	.	.	.	.	.	.	.	.
8BB-/	.	.	8B-/	.	16e-/	.	16g/	.	.	.	.	.	.	.	.	.	.	.	.	.	.	.
.	.	.	.	.	16e-/JJ	.	16g/JJ	.	.	.	.	.	.	.	.	.	.	.	.	.	.	.
!	!	!	!	!	!	!	!LO:SIC:s=(16fLL	!	!	!	!	!	!	!	!	!	!	!	!	!	!	!
8BB-/	.	.	8B-/	.	(16d/LL	.	16f/LL	.	.	.	.	.	.	.	.	.	.	.	.	.	.	.
!	!	!	!	!	!	!	!LO:SIC:s=16g)	!	!	!	!	!	!	!	!	!	!	!	!	!	!	!
.	.	.	.	.	16e-/)	.	16g/	.	.	.	.	.	.	.	.	.	.	.	.	.	.	.
8BB-/J	.	.	8B-/J	.	16e-/|	.	16g/	.	.	.	.	.	.	.	.	.	.	.	.	.	.	.
.	.	.	.	.	16e-/JJ|	.	16g/JJ	.	.	.	.	.	.	.	.	.	.	.	.	.	.	.
=13	=13	=13	=13	=13	=13	=13	=13	=13	=13	=13	=13	=13	=13	=13	=13	=13	=13	=13	=13	=13	=13	=13
!	!	!	!	!	!	!	!LO:SIC:s=(16b-LL	!	!	!	!	!	!	!	!	!	!	!	!	!	!	!
8BB-/L	.	.	8F/L	.	(16c/LL	.	16b-/LL	.	2ryy	2ryy	0r	.	.	0r	.	.	2ryy	2ryy	2ee-\	.	2aan\	.
!	!	!	!	!	!	!	!LO:SIC:s=16a)	!	!	!	!	!	!	!	!	!	!	!	!	!	!	!
.	.	.	.	.	16e-/)	.	16an/	.	.	.	.	.	.	.	.	.	.	.	.	.	.	.
8BB-/	.	.	8F/	.	16e-/|	.	16a/	.	.	.	.	.	.	.	.	.	.	.	.	.	.	.
.	.	.	.	.	16e-/JJ|	.	16a/JJ	.	.	.	.	.	.	.	.	.	.	.	.	.	.	.
!	!	!	!	!	!	!	!LO:LB:g=original	!	!	!	!	!	!	!	!	!	!	!	!	!	!	!
!	!	!	!	!	!	!	!LO:TX:t=P:problem=mixed beam	!	!	!	!	!	!	!	!	!	!	!	!	!	!	!
!	!	!	!	!	!	!	!LO:SIC:s=(16ee-LL	!	!	!	!	!	!	!	!	!	!	!	!	!	!	!
8BB-/	.	.	8F/	.	(16c/LL	.	16ee-\LL	.	.	.	.	.	.	.	.	.	.	.	.	.	.	.
!	!	!	!	!	!	!	!LO:SIC:s=16a)	!	!	!	!	!	!	!	!	!	!	!	!	!	!	!
.	.	.	.	.	16e-/)	.	16an/	.	.	.	.	.	.	.	.	.	.	.	.	.	.	.
8BB-/J	.	.	8F/J	.	16e-/|	.	16a/	.	.	.	.	.	.	.	.	.	.	.	.	.	.	.
.	.	.	.	.	16e-/JJ|	.	16a/JJ	.	.	.	.	.	.	.	.	.	.	.	.	.	.	.
*Xtremolo	*	*	*	*	*	*	*	*	*	*	*	*	*	*	*	*	*	*	*	*	*	*
=14	=14	=14	=14	=14	=14	=14	=14	=14	=14	=14	=14	=14	=14	=14	=14	=14	=14	=14	=14	=14	=14	=14
!LO:TX:t=P:problem=mixed beam	!	!	!	!	!	!	!	!	!	!	!	!	!	!	!	!	!	!	!	!	!	!
8BB-/L	.	.	8B-/L	.	(16e-/LL	.	(16cc\LL	.	2ryy	2ryy	.	.	.	.	.	.	2ryy	2ryy	4dd\	.	4bb-\	.
.	.	.	.	.	16d/)	.	16b-\)	.	.	.	.	.	.	.	.	.	.	.	.	.	.	.
8BB-/	.	.	8B-/	.	16d/|	.	16b-\|>	.	.	.	.	.	.	.	.	.	.	.	.	.	.	.
.	.	.	.	.	16d/JJ|	.	16b-\JJ|>	.	.	.	.	.	.	.	.	.	.	.	.	.	.	.
8BB-/	.	.	8B-/	.	(16c/LL	.	(16an\LL	.	.	.	.	.	.	.	.	.	.	.	4r	.	4r	.
.	.	.	.	.	16d/)	.	16b-\)	.	.	.	.	.	.	.	.	.	.	.	.	.	.	.
*	*	*	*Xtremolo	*	*	*	*	*	*	*	*	*	*	*	*	*	*	*	*	*	*	*
8B-\J	.	.	8B-/J	.	16d/|	.	16b-\|>	.	.	.	.	.	.	.	.	.	.	.	.	.	.	.
.	.	.	.	.	16d/JJ|	.	16b-\JJ|>	.	.	.	.	.	.	.	.	.	.	.	.	.	.	.
!	!	!	!	!	!LO:PB:g=original	!	!	!	!	!	!	!	!	!	!	!	!	!	!	!	!	!
=15	=15	=15	=15	=15	=15	=15	=15	=15	=15	=15	=15	=15	=15	=15	=15	=15	=15	=15	=15	=15	=15	=15
!	!	!LO:MO:null:mod=!LO&colon;DY&colon;ed=brack	!	!	!	!	!	!	!	!	!	!	!	!	!	!	!	!	!	!	!	!
!	!	!	!	!	!	!	!	!	!	!	!	!	!	!	!	!	!	!	!	!	!	!
!	!	!LO:MO:null:mod=f	!	!LO:DY:a:t=for.	!	!LO:DY:a:t=for.	!	!LO:DY:a:t=f&colon;	!	!	!	!	!	!	!	!	!	!	!	!LO:DY:t=f.	!	!LO:DY:t=for.
8c\L	6	.	8A/L	f	8f/L	f	8.ff\L 8.f\	f	2ryy	2ryy	.	.	.	.	.	.	2ryy	2ryy	(4ee-\	f	4.ff\	f
!	!	!	!LO:SIC:v:s=8c	!	!	!	!	!	!	!	!	!	!	!	!	!	!	!	!	!	!	!
8A\	6 5	.	8d/	.	8f/	.	.	.	.	.	.	.	.	.	.	.	.	.	.	.	.	.
.	.	.	.	.	.	.	16cc\Jk	.	.	.	.	.	.	.	.	.	.	.	.	.	.	.
8B-\	.	.	8B-/	.	8f/	.	(16ee-\LL	.	.	.	.	.	.	.	.	.	.	.	8dd\)	.	.	.
.	.	.	.	.	.	.	16dd\	.	.	.	.	.	.	.	.	.	.	.	.	.	.	.
!	!	!	!	!	!	!	!LO:SIC:s=16gg	!	!	!	!	!	!	!	!	!	!	!	!	!	!	!
8D\J	6	.	8d/J	.	8b-/J	.	16gg\)	.	.	.	.	.	.	.	.	.	.	.	8r	.	16gg\LL	.
!	!	!	!	!	!	!	!LO:SIC:s=16ffJJ)	!	!	!	!	!	!	!	!	!	!	!	!	!	!	!
.	.	.	.	.	.	.	16ff\JJ	.	.	.	.	.	.	.	.	.	.	.	.	.	16ff\JJ	.
!	!	!	!	!	!	!	!	!	!	!	!	!	!	!	!	!	!	!	!	!	!LO:LB:g=original	!
=16	=16	=16	=16	=16	=16	=16	=16	=16	=16	=16	=16	=16	=16	=16	=16	=16	=16	=16	=16	=16	=16	=16
!LO:TX:t=P:problem=mixed beam	!	!	!LO:TX:t=P:problem=mixed beam	!	!	!	!	!	!	!	!	!	!	!	!	!	!	!	!	!	!	!
8E-\L	3	.	8e-\L	.	8b-\L	.	(16ff#X\LL	.	2ryy	2ryy	.	.	.	.	.	.	2ryy	2ryy	8r	.	8gg\L	.
!	!	!	!	!	!	!	!LO:SIC:s=16gg	!	!	!	!	!	!	!	!	!	!	!	!	!	!	!
.	.	.	.	.	.	.	16gg\)	.	.	.	.	.	.	.	.	.	.	.	.	.	.	.
!	!	!	!	!	!	!	!LO:SIC:s=16bb-	!	!	!	!	!	!	!	!	!	!	!	!	!	!	!
8E-\	.	.	8e-\	.	8b-\J	.	16bb-\	.	.	.	.	.	.	.	.	.	.	.	8ee-\L	.	16bb-\L	.
!	!	!	!	!	!	!	!LO:SIC:s=16ggJJ)	!	!	!	!	!	!	!	!	!	!	!	!	!	!	!
.	.	.	.	.	.	.	16gg\JJ	.	.	.	.	.	.	.	.	.	.	.	.	.	16gg\JJ	.
!	!	!	!	!	!LO:SIC:s=(16ddLL	!	!LO:SIC:s=(16ffLL	!	!	!	!	!	!	!	!	!	!	!	!	!	!	!
8F\	4	.	8f\	.	16dd\LL	.	16ffn\LL	.	.	.	.	.	.	.	.	.	.	.	8dd\	.	8ff\L	.
!	!	!	!	!	!	!	!LO:SIC:s=16ee-	!	!	!	!	!	!	!	!	!	!	!	!	!	!	!
.	.	.	.	.	16cc\	.	(16ee-\	.	.	.	.	.	.	.	.	.	.	.	.	.	.	.
!	!	!	!	!	!	!	!LO:SIC:s=16dd	!	!	!	!	!	!	!	!	!	!	!	!	!	!	!
8FF/J	3	.	8F/J	.	16b-\	.	16dd\)	.	.	.	.	.	.	.	.	.	.	.	8cc\J	.	8aa\J	.
!	!	!	!	!	!LO:SIC:s=16aJJ)	!	!LO:SIC:s=16ccJJ)	!	!	!	!	!	!	!	!	!	!	!	!	!	!	!
.	.	.	.	.	16a\JJ	.	16cc\JJ	.	.	.	.	.	.	.	.	.	.	.	.	.	.	.
=17	=17	=17	=17	=17	=17	=17	=17	=17	=17	=17	=17	=17	=17	=17	=17	=17	=17	=17	=17	=17	=17	=17
!	!	!	!	!	!	!	!LO:SIC:s=(16ddLL	!	!	!	!	!	!	!	!	!	!	!	!	!	!	!
8BB-/L	.	.	8B-\L	.	8d/L	.	16dd\LL	.	2ryy	2ryy	0r	.	.	2r	.	.	2ryy	2ryy	8dd\L	.	8bb-\L	.
!	!	!	!	!	!	!	!LO:SIC:s=16b-	!	!	!	!	!	!	!	!	!	!	!	!	!	!	!
.	.	.	.	.	.	.	(16b-\	.	.	.	.	.	.	.	.	.	.	.	.	.	.	.
!	!	!	!	!	!	!	!LO:SIC:s=16a	!	!	!	!	!	!	!	!	!	!	!	!	!	!	!
8C/	6	.	8c\	.	8e-/	.	16an\)	.	.	.	.	.	.	.	.	.	.	.	8ee-\	.	8aa\	.
!	!	!	!	!	!	!	!LO:SIC:s=16ccJJ)	!	!	!	!	!	!	!	!	!	!	!	!	!	!	!
.	.	.	.	.	.	.	16cc\JJ	.	.	.	.	.	.	.	.	.	.	.	.	.	.	.
!	!	!	!	!	!	!	!LO:SIC:s=(16b-LL	!	!	!	!	!	!	!	!	!	!	!	!	!	!	!
8D/	6	.	8d\	.	8f/	.	16b-/LL	.	.	.	.	.	.	.	.	.	.	.	8ff\	.	8bb-\	.
!	!	!	!	!	!	!	!LO:SIC:s=16a-	!	!	!	!	!	!	!	!	!	!	!	!	!	!	!
.	.	.	.	.	.	.	(16a-X/	.	.	.	.	.	.	.	.	.	.	.	.	.	.	.
8D/J	4-	.	8B-\J	.	8f/J	.	16f/	.	.	.	.	.	.	.	.	.	.	.	8b-\J	.	8aa-X\J	.
.	.	.	.	.	.	.	16a-/JJ)	.	.	.	.	.	.	.	.	.	.	.	.	.	.	.
!	!	!	!	!	!	!	!	!	!	!	!	!	!	!	!	!	!	!	!LO:LB:g=original	!	!	!
=18	=18	=18	=18	=18	=18	=18	=18	=18	=18	=18	=18	=18	=18	=18	=18	=18	=18	=18	=18	=18	=18	=18
!LO:TX:t=P:problem=mixed beam	!	!	!LO:TX:t=P:problem=mixed beam	!	!	!	!LO:TX:t=P:problem=mixed beam	!	!	!	!	!	!	!	!	!	!	!	!	!	!	!
8E-\L	3	.	8B-\L	.	8g/L	.	16g/LL	.	2ryy	2ryy	.	.	.	2r	.	.	2ryy	2ryy	8b-\L	.	8gg\L	.
.	.	.	.	.	.	.	(16gg\	.	.	.	.	.	.	.	.	.	.	.	.	.	.	.
8E-\	6	.	8e-\	.	16g/L	.	16ee-\	.	.	.	.	.	.	.	.	.	.	.	16r	.	16r	.
.	.	.	.	.	16e-/JJ	.	16cc\JJ)	.	.	.	.	.	.	.	.	.	.	.	16ee-\Jk	.	16ccc\Jk	.
8F\	4	.	8f\	.	8d/L	.	8b-/L	.	.	.	.	.	.	.	.	.	.	.	8dd\L	.	8bb-\L	.
8FF/J	3	.	8F/J	.	8c/J	.	8an/J	.	.	.	.	.	.	.	.	.	.	.	8cc\J	.	8aan\J	.
=19	=19	=19	=19	=19	=19	=19	=19	=19	=19	=19	=19	=19	=19	=19	=19	=19	=19	=19	=19	=19	=19	=19
!	!	!	!	!	!	!	!	!	!	!	!	!	!	!LO:TX:a:i:t=Solo	!	!	!	!	!	!	!	!
8BB-\L	.	.	8B-/L	.	8d/L	.	8b-/L	.	2ryy	2ryy	.	.	.	4r	.	.	2ryy	2ryy	4dd\	.	4bb-\	.
8F\	.	.	8F/	.	8f/	.	16f/L	.	.	.	.	.	.	.	.	.	.	.	.	.	.	.
.	.	.	.	.	.	.	16d/JJ	.	.	.	.	.	.	.	.	.	.	.	.	.	.	.
!	!	!	!	!	!	!	!LO:TX:t=P:problem=mixed beam	!	!	!	!	!	!	!	!	!	!	!	!	!	!	!
8BB-\J	.	.	8B-/J	.	8B-/J	.	8B-/L	.	.	.	.	.	.	8r	.	.	.	.	4r	.	4r	.
!	!	!	!	!	!	!	!	!LO:MO:null:mod=p	!	!	!	!	!	!	!	!	!	!	!	!	!	!
8r	.	.	8r	.	8r	.	16ff\L	.	.	.	.	.	.	16ff\LL	Do-	.	.	.	.	.	.	.
.	.	.	.	.	.	.	16dd\JJ	.	.	.	.	.	.	16dd\JJ	.	.	.	.	.	.	.	.
!	!	!	!LO:PB:g=original	!	!	!	!	!	!	!	!	!	!	!	!	!	!	!	!	!	!	!
=20	=20	=20	=20	=20	=20	=20	=20	=20	=20	=20	=20	=20	=20	=20	=20	=20	=20	=20	=20	=20	=20	=20
!	!	!LO:MO:null:mod=!LO&colon;DY&colon;ed=brack	!	!	!	!	!	!	!	!	!	!	!	!	!	!	!	!	!	!	!	!
!LO:TX:t=P:problem=mixed beam	!	!	!	!LO:DY:t=po.	!	!LO:DY:a:t=po.	!	!LO:DY:a:rj:t=P&colon;	!	!	!	!	!	!	!	!	!	!	!	!	!	!
!	!	!LO:MO:null:mod=p	!	!	!	!	!	!LO:MO:null:mod=.	!	!	!	!	!	!	!	!	!	!	!	!	!	!
8B-\L	.	.	8B-/L	p	8d/L	p	8.b-\L	p	2ryy	2ryy	.	.	.	8.b-\L	.	.	2ryy	2ryy	0r	.	0r	.
8BB-/J	.	.	8B-/J	.	8d/J	.	.	.	.	.	.	.	.	.	.	.	.	.	.	.	.	.
.	.	.	.	.	.	.	16dd\Jk	.	.	.	.	.	.	16dd\Jk	.	.	.	.	.	.	.	.
8r	.	.	8r	.	16d/LL	.	16ff\LL	.	.	.	.	.	.	16ff\LL	-mi-	.	.	.	.	.	.	.
.	.	.	.	.	16g/	.	16bb-\	.	.	.	.	.	.	16bb-\JJ	.	.	.	.	.	.	.	.
8E-\	.	.	8B-/	.	16f/	.	16aa\	.	.	.	.	.	.	16aa\LL	-ne	.	.	.	.	.	.	.
.	.	.	.	.	16e-/JJ	.	16gg\JJ	.	.	.	.	.	.	16gg\JJ	.	.	.	.	.	.	.	.
!	!	!	!	!	!	!	!LO:LB:g=original	!	!	!	!	!	!	!	!	!	!	!	!	!	!	!
=21	=21	=21	=21	=21	=21	=21	=21	=21	=21	=21	=21	=21	=21	=21	=21	=21	=21	=21	=21	=21	=21	=21
!LO:TX:t=P:problem=mixed beam	!	!	!	!	!	!	!LO:TX:a:t=t:mod=	!	!	!	!	!	!	!	!	!	!	!	!	!	!	!
!	!	!	!	!	!	!	!LO:SIC:s=8ggTL	!	!	!	!	!	!	!	!	!	!	!	!	!	!	!
8B-\L	.	.	8B-/L	.	8e-/L	.	8gg\L	.	2ryy	2ryy	0r	.	.	8gg\	De-	.	2ryy	2ryy	.	.	.	.
16BB-/L	5 3	.	16B-/L	.	16d/L	.	8ff\J	.	.	.	.	.	.	8ff\	-us	.	.	.	.	.	.	.
16C/JJ	.	.	16c/JJ	.	16e-/JJ	.	.	.	.	.	.	.	.	.	.	.	.	.	.	.	.	.
8D\L	6	.	8d\L	.	8f/L	.	16r	.	.	.	.	.	.	8r	.	.	.	.	.	.	.	.
.	.	.	.	.	.	.	16b-\LL	.	.	.	.	.	.	.	.	.	.	.	.	.	.	.
8D\J	.	.	8d\J	.	8f/J	.	16b-\	.	.	.	.	.	.	16b-\	De-	.	.	.	.	.	.	.
.	.	.	.	.	.	.	16b-\JJ	.	.	.	.	.	.	16b-\	-us	.	.	.	.	.	.	.
!LO:PB:g=original	!	!	!	!	!	!	!	!	!	!	!	!	!	!LO:LB:g=original	!	!	!	!	!	!	!	!
=22	=22	=22	=22	=22	=22	=22	=22	=22	=22	=22	=22	=22	=22	=22	=22	=22	=22	=22	=22	=22	=22	=22
8E-\L	6	.	8e-\L	.	8g/L	.	(16bn\LL	.	2ryy	2ryy	.	.	.	16bn\LL	Rex	.	2ryy	2ryy	.	.	.	.
.	.	.	.	.	.	.	16cc\)	.	.	.	.	.	.	16cc\JJ	.	.	.	.	.	.	.	.
8E-\	.	.	8c\	.	8g/	.	16ee-\	.	.	.	.	.	.	16ee-\LL	Coe-	.	.	.	.	.	.	.
.	.	.	.	.	.	.	16cc\JJ	.	.	.	.	.	.	16cc\JJ	.	.	.	.	.	.	.	.
8F\J	n	.	8f\J	.	8c/J	.	(16b-X\LL	.	.	.	.	.	.	16b-X\LL	-les-	.	.	.	.	.	.	.
.	.	.	.	.	.	.	16a\)	.	.	.	.	.	.	16a\JJ	.	.	.	.	.	.	.	.
8r	.	.	8r	.	8r	.	16gg\	.	.	.	.	.	.	16gg\LL	-tis	.	.	.	.	.	.	.
.	.	.	.	.	.	.	16ff\JJ	.	.	.	.	.	.	16ff\JJ	.	.	.	.	.	.	.	.
!	!	!	!	!	!LO:LB:g=original	!	!	!	!	!	!	!	!	!	!	!	!	!	!	!	!	!
=23	=23	=23	=23	=23	=23	=23	=23	=23	=23	=23	=23	=23	=23	=23	=23	=23	=23	=23	=23	=23	=23	=23
!LO:TX:t=P:problem=mixed beam	!	!	!LO:TX:t=P:problem=mixed beam	!	!	!	!	!	!	!	!	!	!	!	!	!	!	!	!	!	!	!
8A\L	6 5	.	8f\L	.	8c/L	.	8.ff\L	.	2ryy	2ryy	.	.	.	8.ff\L	De-	.	2ryy	2ryy	.	.	.	.
8F\	.	.	8F/	.	8A/	.	.	.	.	.	.	.	.	.	.	.	.	.	.	.	.	.
.	.	.	.	.	.	.	16ee-\Jk	.	.	.	.	.	.	16ee-\Jk	.	.	.	.	.	.	.	.
8B-\	.	.	8B-/	.	8B-/	.	(16ee-\LL	.	.	.	.	.	.	8dd\	-us	.	.	.	.	.	.	.
.	.	.	.	.	.	.	16dd\	.	.	.	.	.	.	.	.	.	.	.	.	.	.	.
*	*	*	*	*	*	*	*	*	*	*	*	*	*	*	*ij	*	*	*	*	*	*	*
8BB-/J	.	.	8d/J	.	8b-/J	.	16ff\)	.	.	.	.	.	.	16ff\	De-	.	.	.	.	.	.	.
.	.	.	.	.	.	.	16bb-\JJ	.	.	.	.	.	.	16bb-\	-us	.	.	.	.	.	.	.
*	*	*	*	*	*	*	*	*	*	*	*	*	*	*	*Xij	*	*	*	*	*	*	*
=24	=24	=24	=24	=24	=24	=24	=24	=24	=24	=24	=24	=24	=24	=24	=24	=24	=24	=24	=24	=24	=24	=24
!LO:TX:t=P:problem=mixed beam	!	!	!LO:TX:t=P:problem=mixed beam	!	!	!	!	!	!	!	!	!	!	!	!	!	!	!	!	!	!	!
8E-\L	.	.	8e-\L	.	16b-/LL	.	16gg\LL	.	2ryy	2ryy	.	.	.	16gg\LL	Pa-	.	2ryy	2ryy	1r	.	1r	.
.	.	.	.	.	16g/	.	16ee-\	.	.	.	.	.	.	16ee-\JJ	.	.	.	.	.	.	.	.
8E-\	6	.	8e-\	.	16f/	.	16dd\	.	.	.	.	.	.	16dd\	-ter	.	.	.	.	.	.	.
.	.	.	.	.	16e-/JJ	.	16cc\JJ	.	.	.	.	.	.	16cc\	om-	.	.	.	.	.	.	.
8F\	4	.	8f\	.	8d/L	.	8b-/L	.	.	.	.	.	.	8b-\	-ni-	.	.	.	.	.	.	.
8FF/J	3	.	8F/J	.	8c/J	.	8a/J	.	.	.	.	.	.	8a\	-po-	.	.	.	.	.	.	.
=25	=25	=25	=25	=25	=25	=25	=25	=25	=25	=25	=25	=25	=25	=25	=25	=25	=25	=25	=25	=25	=25	=25
4BB-/	.	.	4B-/	.	8d/	.	8b-/	.	2ryy	2ryy	2r	.	.	4b-\	-tens	.	2ryy	2ryy	.	.	.	.
.	.	.	.	.	8r	.	8r	.	.	.	.	.	.	.	.	.	.	.	.	.	.	.
4r	.	.	4r	.	4r	.	4r	.	.	.	.	.	.	4r	.	.	.	.	.	.	.	.
!	!	!	!	!	!	!	!	!	!	!	!	!	!	!LO:PB:g=original	!	!	!	!	!	!	!	!
=26	=26	=26	=26	=26	=26	=26	=26	=26	=26	=26	=26	=26	=26	=26	=26	=26	=26	=26	=26	=26	=26	=26
*	*	*	*tremolo	*	*	*	*	*	*	*	*	*	*	*	*	*	*	*	*	*	*	*
!	!	!	!	!	!	!	!	!	!	!	!	!	!LO:MO:null:mod=!LO&colon;DY&colon;ed=brack	!	!	!	!	!	!	!	!	!LO:MO:null:mod=!LO&colon;DY&colon;ed=brack
!	!	!	!	!	!	!	!	!	!	!	!	!	!	!	!	!	!	!	!	!	!	!
!	!	!	!	!	!	!	!LO:TX:a:t=Repe:mod=	!	!	!	!LO:TX:a:i:t=Solo	!	!LO:MO:null:mod=p	!	!	!LO:DY:a:t=p.	!	!	!	!LO:DY:t=p.	!	!LO:MO:null:mod=p
2BB-/	7- 5	.	8d\L	.	(16d/LL	.	(16b-/LL	.	2ryy	2ryy	4f\	Do-	.	4a-X\	Do-	p	2ryy	2ryy	2ff\	p	2aa-X\	.
.	.	.	.	.	16f/)	.	16a-X/)	.	.	.	.	.	.	.	.	.	.	.	.	.	.	.
.	.	.	8d\	.	16f/|	.	16a-/|	.	.	.	.	.	.	.	.	.	.	.	.	.	.	.
.	.	.	.	.	16f/JJ|	.	16a-/JJ|	.	.	.	.	.	.	.	.	.	.	.	.	.	.	.
.	.	.	8d\	.	(16d/LL	.	(16f/LL	.	.	.	8f\	-mi-	.	16a-\LL	-mi-	.	.	.	.	.	.	.
.	.	.	.	.	16f/)	.	16a-/)	.	.	.	.	.	.	32g\L	.	.	.	.	.	.	.	.
.	.	.	.	.	.	.	.	.	.	.	.	.	.	32a-\JJJ	.	.	.	.	.	.	.	.
.	.	.	8d\J	.	16f/|	.	16a-/|	.	.	.	8f\	-ne	.	16b-\LL	-ne	.	.	.	.	.	.	.
.	.	.	.	.	16f/JJ|	.	16a-/JJ|	.	.	.	.	.	.	16a-\JJ	.	.	.	.	.	.	.	.
=27	=27	=27	=27	=27	=27	=27	=27	=27	=27	=27	=27	=27	=27	=27	=27	=27	=27	=27	=27	=27	=27	=27
2BB-/	6 4	.	8B-/L	.	(16d/LL	.	(16f#X/LL	.	2ryy	2ryy	16d\LL	Fi-	.	16f#X/LL	Fi-	.	2ryy	2ryy	[2ee-\	.	2gg\	.
.	.	.	.	.	16e-/)	.	16g/)	.	.	.	16e-\JJ	.	.	16g/JJ	.	.	.	.	.	.	.	.
.	.	.	8B-/	.	16e-/|	.	16g/|	.	.	.	8e-\	-li	.	4g/	-li	.	.	.	.	.	.	.
.	.	.	.	.	16e-/JJ|	.	16g/JJ|	.	.	.	.	.	.	.	.	.	.	.	.	.	.	.
.	.	.	8B-/	.	16G/LL	.	(16e-/LL	.	.	.	4r	.	.	.	.	.	.	.	.	.	.	.
.	.	.	.	.	16e-/	.	16g/)	.	.	.	.	.	.	.	.	.	.	.	.	.	.	.
.	.	.	8B-/J	.	16e-/	.	16g/|	.	.	.	.	.	.	8r	.	.	.	.	.	.	.	.
.	.	.	.	.	16e-/JJ	.	16g/JJ|	.	.	.	.	.	.	.	.	.	.	.	.	.	.	.
=28	=28	=28	=28	=28	=28	=28	=28	=28	=28	=28	=28	=28	=28	=28	=28	=28	=28	=28	=28	=28	=28	=28
!	!	!	!	!	!	!	!LO:TX:t=P:problem=mixed beam	!	!	!	!	!	!	!	!	!	!	!	!	!	!	!
!	!	!	!	!	!	!	!LO:SIC:s=(16ee-LL	!	!	!	!	!	!	!	!	!	!	!	!	!	!	!
2BB-/	7n 2	.	8F/L	.	(16c/LL	.	16ee-\LL	.	2ryy	2ryy	4.e-\	u-	.	4an\	u-	.	2ryy	2ryy	2ee-\]	.	2aan\	.
!	!	!	!	!	!	!	!LO:SIC:s=16a)	!	!	!	!	!	!	!	!	!	!	!	!	!	!	!
.	.	.	.	.	16e-/)	.	16an/	.	.	.	.	.	.	.	.	.	.	.	.	.	.	.
.	.	.	8F/	.	16e-/|	.	16a/	.	.	.	.	.	.	.	.	.	.	.	.	.	.	.
.	.	.	.	.	16e-/JJ|	.	16a/JJ	.	.	.	.	.	.	.	.	.	.	.	.	.	.	.
!	!	!	!	!	!	!	!LO:LB:g=original	!	!	!	!	!	!	!	!	!	!	!	!	!	!	!
.	.	.	8F/	.	(16c/LL	.	(16b-/LL	.	.	.	.	.	.	16ee-\LL	.	.	.	.	.	.	.	.
.	.	.	.	.	16e-/)	.	16an/)	.	.	.	.	.	.	16cc\JJ	.	.	.	.	.	.	.	.
.	.	.	8F/J	.	16e-/|	.	16a/|	.	.	.	8e-\	-ni-	.	16b-\LL	-ni-	.	.	.	.	.	.	.
.	.	.	.	.	16e-/JJ|	.	16a/JJ|	.	.	.	.	.	.	16a\JJ	.	.	.	.	.	.	.	.
=29	=29	=29	=29	=29	=29	=29	=29	=29	=29	=29	=29	=29	=29	=29	=29	=29	=29	=29	=29	=29	=29	=29
2BB-/	8 3	.	8B-/L	.	(16c/LL	.	(16a\LL	.	2ryy	2ryy	16c\LL	-ge-	.	16a\LL	-ge-	.	2ryy	2ryy	2dd\	.	2bb-\	.
.	.	.	.	.	16d/)	.	16b-\)	.	.	.	16d\JJ	.	.	16b-\JJ	.	.	.	.	.	.	.	.
.	.	.	8B-/	.	16d/	.	16b-\|>	.	.	.	16e-\LL	-ni-	.	16cc\LL	-ni-	.	.	.	.	.	.	.
.	.	.	.	.	16d/JJ	.	16b-\JJ|>	.	.	.	16d\JJ	.	.	16b-\JJ	.	.	.	.	.	.	.	.
.	.	.	8B-/	.	(16e-/LL	.	(16dd\LL	.	.	.	4d\	-te	.	4b-\	-te	.	.	.	.	.	.	.
.	.	.	.	.	16d/)	.	16b-\)	.	.	.	.	.	.	.	.	.	.	.	.	.	.	.
.	.	.	8B-/J	.	16d/	.	16b-\|>	.	.	.	.	.	.	.	.	.	.	.	.	.	.	.
!	!	!	!	!	!	!	!LO:TX:a:t=tum:mod=	!	!	!	!	!	!	!	!	!	!	!	!	!	!	!
.	.	.	.	.	16d/JJ	.	16b-\JJ|>	.	.	.	.	.	.	.	.	.	.	.	.	.	.	.
!	!	!	!	!	!	!	!	!	!	!	!LO:LB:g=original	!	!	!	!	!	!	!	!	!	!	!
=30	=30	=30	=30	=30	=30	=30	=30	=30	=30	=30	=30	=30	=30	=30	=30	=30	=30	=30	=30	=30	=30	=30
*	*	*	*	*	*	*	*	*	*	*	*2\right	*	*	*	*	*	*	*	*	*	*	*
!	!	!	!	!	!	!	!LO:TX:t=P:problem=tt. 30-33 zapisane repetycją	!	!	!	!	!	!	!	!	!	!	!	!	!	!	!
2BB-/	7- 2	.	8d\L	.	(16d/LL	.	(y16b-/LLyy	.	2ryy	2ryy	2f\	Je-	.	4a-X\	u-	.	2ryy	2ryy	2ff\	.	2aa-X\	.
.	.	.	.	.	16f/)	.	16a-X/)yy	.	.	.	.	.	.	.	.	.	.	.	.	.	.	.
.	.	.	8d\	.	16f/|	.	16a-/|yy	.	.	.	.	.	.	.	.	.	.	.	.	.	.	.
*	*	*	*	*	*custos:d	*	*	*	*	*	*	*	*	*	*	*	*	*	*	*	*	*
.	.	.	.	.	16f/JJ|	.	16a-/JJ|yy	.	.	.	.	.	.	.	.	.	.	.	.	.	.	.
.	.	.	8d\	.	(16d/LL	.	(y16f/LLyy	.	.	.	.	.	.	16a-\LL	.	.	.	.	.	.	.	.
.	.	.	.	.	16f/)	.	16a-/)yy	.	.	.	.	.	.	32g\L	.	.	.	.	.	.	.	.
.	.	.	.	.	.	.	.	.	.	.	.	.	.	32a-\JJJ	.	.	.	.	.	.	.	.
.	.	.	8d\J	.	16f/|	.	16a-/|yy	.	.	.	.	.	.	16b-\LL	-ni-	.	.	.	.	.	.	.
.	.	.	.	.	16f/JJ|	.	16a-/JJ|yy	.	.	.	.	.	.	16a-\JJ	.	.	.	.	.	.	.	.
!	!	!	!LO:LB:g=original	!	!	!	!	!	!	!	!	!	!	!LO:LB:g=original	!	!	!	!	!	!	!	!
=31	=31	=31	=31	=31	=31	=31	=31	=31	=31	=31	=31	=31	=31	=31	=31	=31	=31	=31	=31	=31	=31	=31
!	!	!	!	!	!	!	!	!	!	!	!	!	!	!LO:SIC:v:s=16a-\LL	!	!	!	!	!	!	!	!
2BB-/	6 4	.	8B-/L	.	(16d/LL	.	(y16f#X/LLyy	.	2ryy	2ryy	16f\LL	.	.	16a\LL	-ge-	.	2ryy	2ryy	[2ee-\	.	2gg\	.
.	.	.	.	.	16e-/)	.	16g/)yy	.	.	.	16e-\	.	.	16g\	.	.	.	.	.	.	.	.
.	.	.	8B-/	.	16e-/|	.	16g/|yy	.	.	.	16d\	.	.	16f\	-ni-	.	.	.	.	.	.	.
.	.	.	.	.	16e-/JJ|	.	16g/JJ|yy	.	.	.	16e-\JJ	.	.	16g\JJ	.	.	.	.	.	.	.	.
.	.	.	8B-/	.	(16G/LL	.	(y16e-/LLyy	.	.	.	4e-\	-su	.	4g\	-te	.	.	.	.	.	.	.
.	.	.	.	.	16e-/)	.	16g/)yy	.	.	.	.	.	.	.	.	.	.	.	.	.	.	.
.	.	.	8B-/J	.	16e-/|	.	16g/|yy	.	.	.	.	.	.	.	.	.	.	.	.	.	.	.
.	.	.	.	.	16e-/JJ|	.	16g/JJ|yy	.	.	.	.	.	.	.	.	.	.	.	.	.	.	.
=32	=32	=32	=32	=32	=32	=32	=32	=32	=32	=32	=32	=32	=32	=32	=32	=32	=32	=32	=32	=32	=32	=32
!	!	!	!	!	!	!	!LO:TX:t=P:problem=mixed beam	!	!	!	!	!LO:MO:mod=Chris-	!	!	!	!	!	!	!	!	!	!
!	!	!	!	!	!	!	!LO:SIC:s=16ee-LL(	!	!	!	!	!	!	!	!	!	!	!	!	!	!	!
2BB-/	7n 2	.	8F/L	.	(16c/LL	.	16ee-\LLyy	.	2ryy	2ryy	2e-\	X-	.	8.an\	u-	.	2ryy	2ryy	2ee-\]	.	2aan\	.
!	!	!	!	!	!	!	!LO:SIC:s=16a)	!	!	!	!	!	!	!	!	!	!	!	!	!	!	!
.	.	.	.	.	16e-/)	.	16an/yy	.	.	.	.	.	.	.	.	.	.	.	.	.	.	.
.	.	.	8F/	.	16e-/|	.	16a/yy	.	.	.	.	.	.	.	.	.	.	.	.	.	.	.
.	.	.	.	.	16e-/JJ|	.	16a/JJyy	.	.	.	.	.	.	16cc\	-ni-	.	.	.	.	.	.	.
.	.	.	8F/	.	(16c/LL	.	(y16b-/LLyy	.	.	.	.	.	.	16ee-\LL	-ge-	.	.	.	.	.	.	.
.	.	.	.	.	16e-/)	.	16an/)yy	.	.	.	.	.	.	16cc\	.	.	.	.	.	.	.	.
.	.	.	8F/J	.	16e-/|	.	16a/|yy	.	.	.	.	.	.	16b-\	.	.	.	.	.	.	.	.
.	.	.	.	.	16e-/JJ|	.	16a/JJ|yy	.	.	.	.	.	.	16a\JJ	.	.	.	.	.	.	.	.
!	!	!	!	!	!	!	!	!	!	!	!	!	!	!	!	!	!	!	!	!	!LO:LB:g=original	!
=33	=33	=33	=33	=33	=33	=33	=33	=33	=33	=33	=33	=33	=33	=33	=33	=33	=33	=33	=33	=33	=33	=33
!LO:TX:t=P:problem=mixed beam	!	!	!	!	!	!	!	!	!	!	!	!	!	!	!	!	!	!	!	!	!	!
8BB-/L	8 3	.	8B-/L	.	(16e-/LL	.	(y16a\LLyy	.	2ryy	2ryy	16e-\LL	.	.	16cc\LL	.	.	2ryy	2ryy	4dd\	.	2bb-\	.
.	.	.	.	.	16d/)	.	16b-\)yy	.	.	.	16d\	.	.	16b-\JJ	.	.	.	.	.	.	.	.
8BB-/	.	.	8B-/	.	16d/	.	16b-\|>yy	.	.	.	16c\	.	.	16a\LL	-ni-	.	.	.	.	.	.	.
.	.	.	.	.	16d/JJ	.	16b-\JJ|>yy	.	.	.	16d\JJ	.	.	16b-\JJ	.	.	.	.	.	.	.	.
8BB-/	.	.	8B-/	.	(16c/LL	.	(y16dd\LLyy	.	.	.	4d\	-te	.	4b-\	-te	.	.	.	4r	.	.	.
.	.	.	.	.	16d/)	.	16b-\)yy	.	.	.	.	.	.	.	.	.	.	.	.	.	.	.
*	*	*	*	*	*	*	*	*	*	*	*	*ij	*	*	*	*	*	*	*	*	*	*
8B-\J	.	.	8B-/J	.	16d/|	.	16b-\|>yy	.	.	.	.	.	.	.	.	.	.	.	.	.	.	.
.	.	.	.	.	16d/JJ|	.	16b-\JJ|>yy	.	.	.	.	.	.	.	.	.	.	.	.	.	.	.
*	*	*	*Xtremolo	*	*	*	*	*	*	*	*	*	*	*	*	*	*	*	*	*	*	*
=34	=34	=34	=34	=34	=34	=34	=34	=34	=34	=34	=34	=34	=34	=34	=34	=34	=34	=34	=34	=34	=34	=34
8c\L	3	.	8A/L	.	8f/L	.	8.ee-\L	.	2ryy	2ryy	4.f\	Je-	.	8.ee-\L	Je-	.	2ryy	2ryy	0r	.	0r	.
!	!	!	!LO:SIC:v:s=8c	!	!	!	!	!	!	!	!	!	!	!	!	!	!	!	!	!	!	!
8A\	3	.	8d/	.	8f/	.	.	.	.	.	.	.	.	.	.	.	.	.	.	.	.	.
.	.	.	.	.	.	.	16cc\Jk	.	.	.	.	.	.	16cc\Jk	.	.	.	.	.	.	.	.
8B-\	.	.	8B-/	.	8f/	.	16ee-\LL	.	.	.	.	.	.	16ee-\LL	.	.	.	.	.	.	.	.
.	.	.	.	.	.	.	16dd\	.	.	.	.	.	.	16dd\JJ	.	.	.	.	.	.	.	.
8G\J	6|	.	8c/J	.	8en/J	.	16cc\	.	.	.	8en\	-su	.	16cc\LL	-su	.	.	.	.	.	.	.
.	.	.	.	.	.	.	16b-\JJ	.	.	.	.	.	.	16b-\JJ	.	.	.	.	.	.	.	.
=35	=35	=35	=35	=35	=35	=35	=35	=35	=35	=35	=35	=35	=35	=35	=35	=35	=35	=35	=35	=35	=35	=35
!LO:TX:t=P:problem=mixed beam	!	!	!LO:TX:t=P:problem=mixed beam	!	!	!	!	!	!	!	!	!LO:MO:mod=Chris-	!	!	!LO:MO:mod=Chris-	!	!	!	!	!	!	!
8F\L	.	.	8f\L	.	32f/LLL	.	32a/LLL	.	2ryy	2ryy	16f\LL	X-	.	16a\LL	X-	.	2ryy	2ryy	.	.	.	.
.	.	.	.	.	32g/	.	32b-/	.	.	.	.	.	.	.	.	.	.	.	.	.	.	.
.	.	.	.	.	32f/	.	32a/	.	.	.	16g\JJ	.	.	16b-\JJ	.	.	.	.	.	.	.	.
.	.	.	.	.	32g/JJ	.	32b-/JJ	.	.	.	.	.	.	.	.	.	.	.	.	.	.	.
8FF/	.	.	8F/	.	8a/J	.	8cc/J	.	.	.	8a\	-te	.	8cc\	-te	.	.	.	.	.	.	.
*	*	*	*	*	*	*	*	*	*	*	*	*Xij	*	*	*	*	*	*	*	*	*	*
8F\J	.	.	8F/	.	8r	.	16r	.	.	.	4r	.	.	4r	.	.	.	.	.	.	.	.
.	.	.	.	.	.	.	16ff\LL	.	.	.	.	.	.	.	.	.	.	.	.	.	.	.
8r	.	.	8f\J	.	8a/	.	16een\	.	.	.	.	.	.	.	.	.	.	.	.	.	.	.
.	.	.	.	.	.	.	16dd\JJ	.	.	.	.	.	.	.	.	.	.	.	.	.	.	.
!LO:LB:g=original	!	!	!	!	!	!	!	!	!	!	!	!	!	!LO:LB:g=original	!	!	!	!	!	!	!	!
=36	=36	=36	=36	=36	=36	=36	=36	=36	=36	=36	=36	=36	=36	=36	=36	=36	=36	=36	=36	=36	=36	=36
!	!	!	!	!	!	!	!LO:TX:t=P:problem=mixed beam	!	!	!	!	!	!	!	!	!	!	!	!	!	!	!
8En\L	6 5	.	8c\L	.	8g/L	.	16cc\LL	.	2ryy	2ryy	8g\	Do-	.	16cc\LL	Do-	.	2ryy	2ryy	.	.	.	.
!	!	!	!	!	!	!	!	!	!	!	!	!	!	!LO:SIC:v:s=16een\JJ	!	!	!	!	!	!	!	!
.	.	.	.	.	.	.	16dd\	.	.	.	.	.	.	16ee-\JJ	.	.	.	.	.	.	.	.
8C\	.	.	8c\	.	8en/	.	16g/	.	.	.	16en\LL	-mi-	.	16g\LL	-mi-	.	.	.	.	.	.	.
.	.	.	.	.	.	.	16b-/JJ	.	.	.	16g\JJ	.	.	16b-\JJ	.	.	.	.	.	.	.	.
8F\J	.	.	8f\J	.	8c/J	.	16b-\LL	.	.	.	8f\	-ne	.	16b-\LL	-ne	.	.	.	.	.	.	.
.	.	.	.	.	.	.	16a\	.	.	.	.	.	.	16a\JJ	.	.	.	.	.	.	.	.
8r	.	.	8r	.	8r	.	16ff\	.	.	.	8r	.	.	8r	.	.	.	.	.	.	.	.
.	.	.	.	.	.	.	16dd\JJ	.	.	.	.	.	.	.	.	.	.	.	.	.	.	.
=37	=37	=37	=37	=37	=37	=37	=37	=37	=37	=37	=37	=37	=37	=37	=37	=37	=37	=37	=37	=37	=37	=37
!LO:SIC:v:s=8En	!	!	!LO:TX:t=P:problem=mixed beam	!	!	!	!	!	!	!	!	!	!	!	!	!	!	!	!	!	!	!
8E-\L	5	.	8c\L	.	8g/L	.	16cc\LL	.	2ryy	2ryy	8g\L	De-	.	16cc\LL	De-	.	2ryy	2ryy	.	.	.	.
!	!	!	!	!	!	!	!	!	!	!	!	!	!	!LO:SIC:v:s=16een\	!	!	!	!	!	!	!	!
.	.	.	.	.	.	.	16dd\	.	.	.	.	.	.	16ee-\	.	.	.	.	.	.	.	.
!	!	!	!	!	!	!	!	!	!	!	!LO:SIC:v:s=16en\L	!	!	!	!	!	!	!	!	!	!	!
8C\	7	.	8c\	.	8en/	.	16g\	.	.	.	16e-\L	.	.	16g\	.	.	.	.	.	.	.	.
.	.	.	.	.	.	.	16b-\JJ	.	.	.	16g\JJ	.	.	16b-\JJ	.	.	.	.	.	.	.	.
8F\	.	.	8f\	.	8c/	.	16b-\LL	.	.	.	8f\	-us	.	16b-\LL	-us	.	.	.	.	.	.	.
.	.	.	.	.	.	.	16a\	.	.	.	.	.	.	16a\JJ	.	.	.	.	.	.	.	.
8A\J	6	.	8A/J	.	8g/J	.	16dd\	.	.	.	8r	.	.	8r	.	.	.	.	.	.	.	.
.	.	.	.	.	.	.	16cc\JJ	.	.	.	.	.	.	.	.	.	.	.	.	.	.	.
!	!	!	!	!	!LO:LB:g=original	!	!	!	!	!	!LO:LB:g=original	!	!	!	!	!	!	!	!	!	!	!
=38	=38	=38	=38	=38	=38	=38	=38	=38	=38	=38	=38	=38	=38	=38	=38	=38	=38	=38	=38	=38	=38	=38
!LO:TX:t=P:problem=mixed beam	!	!	!	!	!	!	!	!	!	!	!	!	!	!LO:SIC:v:s=8cc#\L	!	!	!	!	!	!	!	!
8B-\L	.	.	8B-/L	.	8f/L	.	8cc#X\L	.	2ryy	2ryy	(4f\	a-	.	8cc\L	a-	.	2ryy	2ryy	2r	.	2r	.
!	!	!	!	!	!	!	!	!	!	!	!	!	!	!LO:SIC:v:s=8dd	!	!	!	!	!	!	!	!
8B-\	.	.	8B-/	.	8f/	.	8dd\J	.	.	.	.	.	.	8ee-\	.	.	.	.	.	.	.	.
8BB-/	6	.	8B-/	.	8g/	.	8dd\L	.	.	.	8g\)	.	.	8dd\J	.	.	.	.	.	.	.	.
8BBn/J	5	.	8d/J	.	8g/J	.	16gg\L	.	.	.	8g\	-gnus	.	16gg\LL	-gnus	.	.	.	.	.	.	.
.	.	.	.	.	.	.	16ff\JJ	.	.	.	.	.	.	16ff\JJ	.	.	.	.	.	.	.	.
=39	=39	=39	=39	=39	=39	=39	=39	=39	=39	=39	=39	=39	=39	=39	=39	=39	=39	=39	=39	=39	=39	=39
!LO:TX:t=P:problem=mixed beam	!	!	!	!	!	!	!	!	!	!	!	!	!	!	!	!	!	!	!	!	!	!
.	.	.	.	.	.	.	.	.	.	.	.	.	.	8qqff/	.	.	.	.	.	.	.	.
8C/L	.	.	8c\L	.	8g/L	.	16ff\LL	.	2ryy	2ryy	8g\L	De-	.	16een\LL	De-	.	2ryy	2ryy	8r	.	8r	.
!	!	!	!	!	!	!	!LO:SIC:v:s=32een	!	!	!	!	!	!	!	!	!	!	!	!	!	!	!
.	.	.	.	.	.	.	32ee-\L	.	.	.	.	.	.	32dd\L	.	.	.	.	.	.	.	.
.	.	.	.	.	.	.	32dd\J	.	.	.	.	.	.	32cc\JJJ	.	.	.	.	.	.	.	.
8C/	.	.	8c\J	.	8g/J	.	16cc\	.	.	.	16f\L	.	.	8cc\	-i	.	.	.	8cc\L	.	8ccc\L	.
!	!	!	!	!	!	!	!LO:N:vis=16	!	!	!	!	!	!	!	!	!	!	!	!	!	!	!
.	.	.	.	.	.	.	32cc\L	.	.	.	16en\JJ	.	.	.	.	.	.	.	.	.	.	.
!	!	!	!	!	!	!	!LO:N:vis=16	!	!	!	!	!	!	!	!	!	!	!	!	!	!	!
.	.	.	.	.	.	.	32cc\JJJ	.	.	.	.	.	.	.	.	.	.	.	.	.	.	.
!	!	!	!	!	!	!	!LO:LB:g=original	!	!	!	!	!	!	!	!	!	!	!	!	!	!	!
8c\	.	.	(16c\LL	.	(16en/LL	.	8cc\	.	.	.	8e\	-i	.	4r	.	.	.	.	8cc\	.	8ccc\	.
.	.	.	16d\)	.	16f/)	.	.	.	.	.	.	.	.	.	.	.	.	.	.	.	.	.
8B-X\J	2	.	(16d\	.	(16f/	.	8r	.	.	.	8r	.	.	.	.	.	.	.	8cc\J	.	8ccc\J	.
!	!	!	!LO:SIC:v:s=16eJJ)	!	!	!	!	!	!	!	!	!	!	!	!	!	!	!	!	!	!	!
.	.	.	16e-X\JJ)	.	16g/JJ)	.	.	.	.	.	.	.	.	.	.	.	.	.	.	.	.	.
=40	=40	=40	=40	=40	=40	=40	=40	=40	=40	=40	=40	=40	=40	=40	=40	=40	=40	=40	=40	=40	=40	=40
8A\L	.	.	8f\L	.	16f/LL	.	8.cc/L	.	2ryy	2ryy	8r	.	.	8.cc\L	Fi-	.	2ryy	2ryy	[<2cc\	.	[2ccc\	.
.	.	.	.	.	16c/	.	.	.	.	.	.	.	.	.	.	.	.	.	.	.	.	.
8F\	6	.	8f\	.	16c/	.	.	.	.	.	4f\	Fi-	.	.	.	.	.	.	.	.	.	.
.	.	.	.	.	16c/JJ	.	16a/Jk	.	.	.	.	.	.	16a\Jk	.	.	.	.	.	.	.	.
8G\	6|	.	8g\	.	16c/LL	.	16cc/LL	.	.	.	.	.	.	16cc\LL	.	.	.	.	.	.	.	.
.	.	.	.	.	16c/	.	16b-/	.	.	.	.	.	.	16b-\JJ	.	.	.	.	.	.	.	.
!	!	!	!LO:SIC:v:s=8cJ	!	!	!	!	!	!	!	!	!	!	!	!	!	!	!	!	!	!	!
8C\J	7	.	8d\J	.	16c/	.	16g/	.	.	.	8en\	-li-	.	16g\LL	-li-	.	.	.	.	.	.	.
.	.	.	.	.	16c/JJ	.	16b-/JJ	.	.	.	.	.	.	16b-\JJ	.	.	.	.	.	.	.	.
!	!	!	!LO:LB:g=original	!	!	!	!	!	!	!	!	!	!	!LO:LB:g=original	!	!	!	!	!	!	!	!
=41	=41	=41	=41	=41	=41	=41	=41	=41	=41	=41	=41	=41	=41	=41	=41	=41	=41	=41	=41	=41	=41	=41
!	!	!	!LO:TX:t=P:problem=mixed beam	!	!	!	!	!	!	!	!	!	!	!	!	!	!	!	!	!	!	!
*	*	*	*	*	*tremolo	*	*	*	*	*	*	*	*	*	*	*	*	*	*	*	*	*
8F\L	.	.	8c/L	.	16c/LL	.	(16a/LL	.	2ryy	2ryy	8f\	-us	.	8a\	-us	.	2ryy	2ryy	4cc\]	.	4ccc\]	.
.	.	.	.	.	16c/	.	16cc/)	.	.	.	.	.	.	.	.	.	.	.	.	.	.	.
8A\	6	.	8A/	.	16c/	.	16f/|	.	.	.	8r	.	.	8r	.	.	.	.	.	.	.	.
.	.	.	.	.	16c/	.	16f/JJ|	.	.	.	.	.	.	.	.	.	.	.	.	.	.	.
8G\	6|	.	8G/	.	16c/	.	(16f/LL	.	.	.	4r	.	.	4r	.	.	.	.	4r	.	4r	.
.	.	.	.	.	16c/	.	16en/)	.	.	.	.	.	.	.	.	.	.	.	.	.	.	.
!	!	!	!LO:SIC:v:s=8en\J	!	!	!	!	!	!	!	!	!	!	!	!	!	!	!	!	!	!	!
8C\J	7	.	8e-X\J	.	16c/	.	16g/|	.	.	.	.	.	.	.	.	.	.	.	.	.	.	.
.	.	.	.	.	16c/JJ	.	16b-/JJ|	.	.	.	.	.	.	.	.	.	.	.	.	.	.	.
!	!	!	!	!	!	!	!	!	!	!	!	!	!	!	!	!	!	!	!LO:LB:g=original	!	!	!
=42	=42	=42	=42	=42	=42	=42	=42	=42	=42	=42	=42	=42	=42	=42	=42	=42	=42	=42	=42	=42	=42	=42
!	!	!	!	!	!	!	!	!	!	!	!LO:N:vis=16	!	!	!	!	!	!	!	!	!	!	!
8A\L	.	.	8f\L	.	16c/LL	.	8.cc/L	.	2ryy	2ryy	8r	.	.	8.cc\L	Pa-	.	2ryy	2ryy	[<2cc\	.	[2ccc\	.
.	.	.	.	.	16c/	.	.	.	.	.	.	.	.	.	.	.	.	.	.	.	.	.
8F\	6	.	8f\	.	16c/	.	.	.	.	.	4f\	[[Pa-	.	.	.	.	.	.	.	.	.	.
.	.	.	.	.	16c/	.	16a/Jk	.	.	.	.	.	.	16a\Jk	.	.	.	.	.	.	.	.
8G\	6|	.	8g\	.	16c/	.	16cc/LL	.	.	.	.	.	.	16cc\LL	.	.	.	.	.	.	.	.
.	.	.	.	.	16c/	.	16b-/	.	.	.	.	.	.	16b-\	.	.	.	.	.	.	.	.
!	!	!	!LO:SIC:v:s=8cJ	!	!	!	!	!	!	!	!	!	!	!	!	!	!	!	!	!	!	!
8C\J	7	.	8d\J	.	16c/	.	16g/	.	.	.	8en\	.	.	16g\	.	.	.	.	.	.	.	.
.	.	.	.	.	16c/JJ	.	16b-/JJ	.	.	.	.	.	.	16b-\JJ	.	.	.	.	.	.	.	.
=43	=43	=43	=43	=43	=43	=43	=43	=43	=43	=43	=43	=43	=43	=43	=43	=43	=43	=43	=43	=43	=43	=43
!	!	!	!LO:TX:t=P:problem=mixed beam	!	!	!	!	!	!	!	!	!	!	!	!	!	!	!	!	!	!	!
8F\L	.	.	8c/L	.	16c/LL	.	16a/LL	.	2ryy	2ryy	8f\	-t]]ris	.	8a\	-tris	.	2ryy	2ryy	4cc\]	.	4ccc\]	.
.	.	.	.	.	16c/	.	16cc/	.	.	.	.	.	.	.	.	.	.	.	.	.	.	.
8A\	6	.	8A/	.	16c/	.	16f/	.	.	.	8r	.	.	8r	.	.	.	.	.	.	.	.
.	.	.	.	.	16c/	.	16f/JJ	.	.	.	.	.	.	.	.	.	.	.	.	.	.	.
8G\	6|	.	8G/	.	16c/	.	16f/LL	.	.	.	4r	.	.	4r	.	.	.	.	4r	.	4r	.
.	.	.	.	.	16c/	.	16en/	.	.	.	.	.	.	.	.	.	.	.	.	.	.	.
8C\J	7	.	8en\J	.	16c/	.	16g/	.	.	.	.	.	.	.	.	.	.	.	.	.	.	.
.	.	.	.	.	16c/JJ	.	16b-/JJ	.	.	.	.	.	.	.	.	.	.	.	.	.	.	.
*	*	*	*	*	*Xtremolo	*	*	*	*	*	*	*	*	*	*	*	*	*	*	*	*	*
=44	=44	=44	=44	=44	=44	=44	=44	=44	=44	=44	=44	=44	=44	=44	=44	=44	=44	=44	=44	=44	=44	=44
!LO:TX:t=P:problem=mixed beam	!	!	!LO:TX:t=P:problem=mixed beam	!	!LO:TX:t=P:problem=mixed beam	!	!LO:SIC:s=(16b-LL	!	!	!	!	!	!	!	!	!	!	!	!	!	!	!
8F\L	.	.	8f\L	.	8c/L	.	16b-\LL	.	2ryy	2ryy	8r	.	.	8r	.	.	2ryy	2ryy	1r	.	1r	.
!	!	!	!	!	!	!	!LO:SIC:s=16a)	!	!	!	!	!	!	!	!	!	!	!	!	!	!	!
.	.	.	.	.	.	.	16a\	.	.	.	.	.	.	.	.	.	.	.	.	.	.	.
!	!	!	!	!	!	!	!LO:SIC:s=(16ff	!	!	!	!	!	!	!	!	!	!	!	!	!	!	!
8FF/J	.	.	8F/J	.	(16dd\L	.	16ff\	.	.	.	16dd\LL	Fi-	.	16ff\LL	Fi-	.	.	.	.	.	.	.
!	!	!	!	!	!	!	!LO:SIC:s=16eeJJ)	!	!	!	!	!	!	!	!	!	!	!	!	!	!	!
.	.	.	.	.	16cc\JJ)	.	16een\JJ	.	.	.	16cc\JJ	.	.	16een\JJ	.	.	.	.	.	.	.	.
!	!	!	!	!	!	!	!LO:SIC:s=(16eeLL	!	!	!	!	!	!	!	!	!	!	!	!	!	!	!
8r	.	.	8r	.	(16cc\LL	.	16ee\LL	.	.	.	16cc\LL	-li-	.	16ee\LL	-li-	.	.	.	.	.	.	.
!	!	!	!	!	!	!	!LO:SIC:s=16dd)	!	!	!	!	!	!	!	!	!	!	!	!	!	!	!
.	.	.	.	.	16b-\)	.	16dd\	.	.	.	16b-\JJ	.	.	16dd\JJ	.	.	.	.	.	.	.	.
!	!	!	!	!	!	!	!LO:SIC:s=(16dd	!	!	!	!	!	!	!	!	!	!	!	!	!	!	!
8F\	.	.	8F/	.	(16b-\	.	16dd\	.	.	.	16b-\LL	-us	.	16dd\LL	-us	.	.	.	.	.	.	.
!	!	!	!	!	!	!	!LO:SIC:s=16ccJJ)	!	!	!	!	!	!	!	!	!	!	!	!	!	!	!
.	.	.	.	.	16a\JJ)	.	16cc\JJ	.	.	.	16a\JJ	.	.	16cc\JJ	.	.	.	.	.	.	.	.
!	!	!	!	!	!	!	!	!	!	!	!LO:LB:g=original	!	!	!	!	!	!	!	!	!	!	!
=45	=45	=45	=45	=45	=45	=45	=45	=45	=45	=45	=45	=45	=45	=45	=45	=45	=45	=45	=45	=45	=45	=45
!LO:TX:t=P:problem=mixed beam	!	!	!	!	!	!	!	!	!	!	!	!	!	!	!	!	!	!	!	!	!	!
8A\L	6	.	8A/L	.	8f/L	.	16cc/LL	.	2ryy	2ryy	4.f\	Pa-	.	16cc\LL	Pa-	.	2ryy	2ryy	.	.	.	.
.	.	.	.	.	.	.	16a/	.	.	.	.	.	.	16a\	.	.	.	.	.	.	.	.
8B-\	.	.	8B-/	.	8f/	.	16dd/	.	.	.	.	.	.	16dd\	.	.	.	.	.	.	.	.
.	.	.	.	.	.	.	16b-/JJ	.	.	.	.	.	.	16b-\JJ	.	.	.	.	.	.	.	.
8c\	.	.	8c/	.	8f/	.	8a/L	.	.	.	.	.	.	8a\L	.	.	.	.	.	.	.	.
!	!	!	!LO:SIC:v:s=8cJ	!	!	!	!	!	!	!	!	!	!	!	!	!	!	!	!	!	!	!
8C/J	.	.	8d/J	.	8en/J	.	8gT/J	.	.	.	8en\	.	.	8g\J	.	.	.	.	.	.	.	.
=46	=46	=46	=46	=46	=46	=46	=46	=46	=46	=46	=46	=46	=46	=46	=46	=46	=46	=46	=46	=46	=46	=46
!LO:TX:t=P:problem=mixed beam	!	!	!LO:TX:t=P:problem=mixed beam	!	!	!LO:DY:a:t=for.	!	!	!	!	!	!	!	!	!	!	!	!	!	!	!	!
8F\L	.	.	8f\L	.	16f/LL	f	4f/	.	2ryy	2ryy	4f\	-tris	.	4f/	-tris	.	2ryy	2ryy	2r	.	2r	.
.	.	.	.	.	16c/	.	.	.	.	.	.	.	.	.	.	.	.	.	.	.	.	.
8FF/J	.	.	8F/J	.	16c/	.	.	.	.	.	.	.	.	.	.	.	.	.	.	.	.	.
.	.	.	.	.	16c/JJ	.	.	.	.	.	.	.	.	.	.	.	.	.	.	.	.	.
*	*	*	*	*	*tremolo	*	*	*	*	*	*	*	*	*	*	*	*	*	*	*	*	*
!	!	!	!	!	!	!	!	!LO:DY:a:t=for	!	!	!	!	!	!	!	!	!	!	!	!	!	!
4r	.	.	4r	.	16c/LL	.	16r	f	.	.	4r	.	.	4r	.	.	.	.	.	.	.	.
.	.	.	.	.	16c/	.	16cc\LL	.	.	.	.	.	.	.	.	.	.	.	.	.	.	.
.	.	.	.	.	16c/	.	16ff\	.	.	.	.	.	.	.	.	.	.	.	.	.	.	.
.	.	.	.	.	16c/JJ	.	16aa\JJ	.	.	.	.	.	.	.	.	.	.	.	.	.	.	.
!LO:LB:g=original	!	!	!	!	!LO:LB:g=original	!	!LO:LB:g=original	!	!	!	!	!	!	!	!	!	!	!	!	!	!	!
=47	=47	=47	=47	=47	=47	=47	=47	=47	=47	=47	=47	=47	=47	=47	=47	=47	=47	=47	=47	=47	=47	=47
!	!	!	!	!LO:MO:null:mod=!LO&colon;DY&colon;ed=brack	!	!	!	!	!	!	!	!	!	!	!	!	!	!	!	!	!	!LO:MO:null:mod=!LO&colon;DY&colon;ed=brack
!	!	!	!	!	!	!	!	!	!	!	!	!	!	!	!	!	!	!	!	!	!	!
!	!	!LO:DY:b:t=for.	!	!LO:MO:null:mod=f	!	!	!	!	!	!	!	!	!	!	!	!	!	!	!	!LO:DY:t=for&colon;	!	!LO:MO:null:mod=f
8G\L	6|	f	8en\L	.	16c/LL	.	(16bb-\LL	.	2ryy	2ryy	0r	.	.	0r	.	.	2ryy	2ryy	4een\	f	4bb-\	.
.	.	.	.	.	16c/	.	16cc\)	.	.	.	.	.	.	.	.	.	.	.	.	.	.	.
8C\	.	.	8e\	.	16c/	.	16cc\|>	.	.	.	.	.	.	.	.	.	.	.	.	.	.	.
.	.	.	.	.	16c/	.	16cc\JJ|>	.	.	.	.	.	.	.	.	.	.	.	.	.	.	.
8F\	.	.	8a\	.	16c/	.	16cc\LL	.	.	.	.	.	.	.	.	.	.	.	4ff\	.	4aa\	.
.	.	.	.	.	16c/	.	16ff\	.	.	.	.	.	.	.	.	.	.	.	.	.	.	.
8C\J	.	.	8f\J	.	16c/	.	16aa\	.	.	.	.	.	.	.	.	.	.	.	.	.	.	.
.	.	.	.	.	16c/JJ	.	16ff\JJ	.	.	.	.	.	.	.	.	.	.	.	.	.	.	.
=48	=48	=48	=48	=48	=48	=48	=48	=48	=48	=48	=48	=48	=48	=48	=48	=48	=48	=48	=48	=48	=48	=48
!	!	!	!LO:SIC:v:s=8en\L	!	!	!	!	!	!	!	!	!	!	!	!	!	!	!	!LO:SIC:v:s=4een\	!	!	!
8G\L	6|	.	8e-\L	.	16c/LL	.	(16bb-\LL	.	2ryy	2ryy	.	.	.	.	.	.	2ryy	2ryy	4ee-\	.	4bb-\	.
.	.	.	.	.	16c/	.	16cc\)	.	.	.	.	.	.	.	.	.	.	.	.	.	.	.
!	!	!	!LO:SIC:v:s=8e\	!	!	!	!	!	!	!	!	!	!	!	!	!	!	!	!	!	!	!
8C\	.	.	8e-\	.	16c/	.	16cc\|>	.	.	.	.	.	.	.	.	.	.	.	.	.	.	.
.	.	.	.	.	16c/	.	16cc\JJ|>	.	.	.	.	.	.	.	.	.	.	.	.	.	.	.
8F\	.	.	8a\	.	16c/	.	16cc\LL	.	.	.	.	.	.	.	.	.	.	.	4ff\	.	4aa\	.
.	.	.	.	.	16c/	.	16ff\	.	.	.	.	.	.	.	.	.	.	.	.	.	.	.
8C\J	.	.	8f\J	.	16c/	.	16aa\	.	.	.	.	.	.	.	.	.	.	.	.	.	.	.
.	.	.	.	.	16c/JJ	.	16ff\JJ	.	.	.	.	.	.	.	.	.	.	.	.	.	.	.
=49	=49	=49	=49	=49	=49	=49	=49	=49	=49	=49	=49	=49	=49	=49	=49	=49	=49	=49	=49	=49	=49	=49
!LO:TX:t=P:problem=mixed beam	!	!	!	!	!	!	!LO:SIC:s=(16cccLL	!	!	!	!	!	!	!	!	!	!	!	!	!	!	!
8c\L	6	.	8A/L	.	16f/LL	.	16ccc\LL	.	2ryy	2ryy	.	.	.	.	.	.	2ryy	2ryy	8r	.	8r	.
!	!	!	!	!	!	!	!LO:SIC:s=16ee-)	!	!	!	!	!	!	!	!	!	!	!	!	!	!	!
.	.	.	.	.	16f/	.	16ee-X\	.	.	.	.	.	.	.	.	.	.	.	.	.	.	.
!	!	!	!LO:SIC:v:s=8c	!	!	!	!	!	!	!	!	!	!	!	!	!	!	!	!	!	!	!
8F\	6	.	8d/	.	16f/	.	16ee-\	.	.	.	.	.	.	.	.	.	.	.	8cc\L	.	8ee-X\L	.
.	7	.	.	.	16f/	.	16ee-\JJ	.	.	.	.	.	.	.	.	.	.	.	.	.	.	.
8B-\	.	.	8B-/	.	16f/	.	16dd\LL	.	.	.	.	.	.	.	.	.	.	.	8b-\	.	8dd\	.
.	.	.	.	.	16f/	.	16ff\JJ	.	.	.	.	.	.	.	.	.	.	.	.	.	.	.
8BB-/J	.	.	8d/J	.	16f/	.	32een\LLL	.	.	.	.	.	.	.	.	.	.	.	8dd\J	.	8ff\J	.
.	.	.	.	.	.	.	32dd\	.	.	.	.	.	.	.	.	.	.	.	.	.	.	.
.	.	.	.	.	16f/JJ	.	32cc\	.	.	.	.	.	.	.	.	.	.	.	.	.	.	.
.	.	.	.	.	.	.	32b-\JJJ	.	.	.	.	.	.	.	.	.	.	.	.	.	.	.
*	*	*	*	*	*Xtremolo	*	*	*	*	*	*	*	*	*	*	*	*	*	*	*	*	*
=50	=50	=50	=50	=50	=50	=50	=50	=50	=50	=50	=50	=50	=50	=50	=50	=50	=50	=50	=50	=50	=50	=50
*tremolo	*	*	*tremolo	*	*	*	*	*	*	*	*	*	*	*	*	*	*	*	*	*	*	*
8C/L	6 4	.	8c\L	.	8f/L	.	16a/LL	.	2ryy	2ryy	.	.	.	.	.	.	2ryy	2ryy	4.ff\	.	4ff\	.
!	!	!	!	!	!	!	!LO:SIC:s=16ccJJ	!	!	!	!	!	!	!	!	!	!	!	!	!	!	!
.	.	.	.	.	.	.	16cc/	.	.	.	.	.	.	.	.	.	.	.	.	.	.	.
!	!	!	!	!	!	!	!LO:SIC:s=32b-LLL	!	!	!	!	!	!	!	!	!	!	!	!	!	!	!
8C/	.	.	8c\	.	8f/	.	32b-/L	.	.	.	.	.	.	.	.	.	.	.	.	.	.	.
.	.	.	.	.	.	.	32a/	.	.	.	.	.	.	.	.	.	.	.	.	.	.	.
.	.	.	.	.	.	.	32g/	.	.	.	.	.	.	.	.	.	.	.	.	.	.	.
.	.	.	.	.	.	.	32f/JJJ	.	.	.	.	.	.	.	.	.	.	.	.	.	.	.
!	!	!	!	!	!	!	!LO:TX:a:t=t:mod=	!	!	!	!	!	!	!	!	!	!	!	!	!	!	!
.	.	.	.	.	.	.	.	.	.	.	.	.	.	.	.	.	.	.	.	.	8qqaa/	.
!	!	!	!	!	!	!	!LO:SIC:s=4gT	!	!	!	!	!	!	!	!	!	!	!	!	!	!	!
8C/	5 3	.	8c\	.	8f/	.	4g/	.	.	.	.	.	.	.	.	.	.	.	.	.	4gg\	.
8C/J	.	.	8c\J	.	8en/J	.	.	.	.	.	.	.	.	.	.	.	.	.	8een\	.	.	.
*Xtremolo	*	*	*Xtremolo	*	*	*	*	*	*	*	*	*	*	*	*	*	*	*	*	*	*	*
!	!	!	!LO:LB:g=original	!	!	!	!	!	!	!	!	!	!	!	!	!	!	!	!	!	!LO:LB:g=original	!
=51	=51	=51	=51	=51	=51	=51	=51	=51	=51	=51	=51	=51	=51	=51	=51	=51	=51	=51	=51	=51	=51	=51
!LO:TX:t=P:problem=mixed beam	!	!	!LO:TX:t=P:problem=mixed beam	!	!	!	!	!	!	!	!	!	!	!	!	!	!	!	!	!	!	!
8F\L	.	.	8f\L	.	8f/L	.	8f/L	.	2ryy	2ryy	4r	.	.	0r	.	.	2ryy	2ryy	4ff\	.	4ff\	.
8C\	.	.	8c\	.	8c/	.	8c/	.	.	.	.	.	.	.	.	.	.	.	.	.	.	.
8FF/J	.	.	8F/J	.	8f/J	.	8f/J	.	.	.	8r	.	.	.	.	.	.	.	4r	.	4r	.
!	!	!	!	!	!	!	!	!LO:DY:a:t=p&colon;	!	!	!	!	!	!	!	!	!	!	!	!	!	!
8r	.	.	8r	.	8r	.	16cc/LL	p	.	.	16cc\LL	qui	.	.	.	.	.	.	.	.	.	.
.	.	.	.	.	.	.	16a/JJ	.	.	.	16a\JJ	.	.	.	.	.	.	.	.	.	.	.
=52	=52	=52	=52	=52	=52	=52	=52	=52	=52	=52	=52	=52	=52	=52	=52	=52	=52	=52	=52	=52	=52	=52
!LO:TX:t=P:problem=mixed beam	!	!	!	!	!	!	!	!	!	!	!	!	!	!	!	!	!	!	!	!	!	!
*	*	*	*tremolo	*	*	*	*	*	*	*	*	*	*	*	*	*	*	*	*	*	*	*
!	!	!LO:DY:a:t=p.	!	!LO:DY:a:t=po	!	!LO:DY:a:t=po.	!	!	!	!	!	!	!	!	!	!	!	!	!	!	!	!
8F\L	.	p	8F/L	p	8A/L	p	8.f/L	.	2ryy	2ryy	8.f\L	tol-	.	.	.	.	2ryy	2ryy	0r	.	0r	.
8FF/J	.	.	8F/	.	8A/J	.	.	.	.	.	.	.	.	.	.	.	.	.	.	.	.	.
.	.	.	.	.	.	.	16a/Jk	.	.	.	16a\Jk	.	.	.	.	.	.	.	.	.	.	.
8r	.	.	8F/	.	16A/LL	.	16cc\LL	.	.	.	16cc\LL	-lis	.	.	.	.	.	.	.	.	.	.
.	.	.	.	.	16d/	.	16ff\	.	.	.	16ff\JJ	.	.	.	.	.	.	.	.	.	.	.
!	!	!	!	!	!	!	!	!	!	!	!LO:SIC:v:s=16een\LL	!	!	!	!	!	!	!	!	!	!	!
8BB-/	.	.	8F/J	.	16c/	.	16een\	.	.	.	16ee-\LL	pec-	.	.	.	.	.	.	.	.	.	.
.	.	.	.	.	16B-/JJ	.	16dd\JJ	.	.	.	16dd\JJ	.	.	.	.	.	.	.	.	.	.	.
*	*	*	*Xtremolo	*	*	*	*	*	*	*	*	*	*	*	*	*	*	*	*	*	*	*
=53	=53	=53	=53	=53	=53	=53	=53	=53	=53	=53	=53	=53	=53	=53	=53	=53	=53	=53	=53	=53	=53	=53
8F\L	.	.	8F/L	.	8B-/L	.	8ddt\L	.	2ryy	2ryy	8dd\	-ca-	.	.	.	.	2ryy	2ryy	.	.	.	.
16F\L	.	.	16F/L	.	16A/L	.	8cc\J	.	.	.	8cc\	-ta	.	.	.	.	.	.	.	.	.	.
16G\JJ	.	.	16G/JJ	.	16A/JJ	.	.	.	.	.	.	.	.	.	.	.	.	.	.	.	.	.
8A\L	6	.	8A/L	.	8c/L	.	16r	.	.	.	8r	.	.	.	.	.	.	.	.	.	.	.
.	.	.	.	.	.	.	16f/LL	.	.	.	.	.	.	.	.	.	.	.	.	.	.	.
8A\J	.	.	8A/J	.	8c/J	.	16f/	.	.	.	8f\	mi-	.	.	.	.	.	.	.	.	.	.
.	.	.	.	.	.	.	16f/JJ	.	.	.	.	.	.	.	.	.	.	.	.	.	.	.
!	!	!	!	!	!	!	!LO:LB:g=original	!	!	!	!	!	!	!	!	!	!	!	!	!	!	!
=54	=54	=54	=54	=54	=54	=54	=54	=54	=54	=54	=54	=54	=54	=54	=54	=54	=54	=54	=54	=54	=54	=54
!LO:TX:t=P:problem=mixed beam	!	!	!	!	!	!	!	!	!	!	!	!	!	!	!	!	!	!	!	!	!	!
8B-\L	.	.	8B-/L	.	8d/L	.	16f#X/LL	.	2ryy	2ryy	16f#X\LL	.	.	.	.	.	2ryy	2ryy	.	.	.	.
.	.	.	.	.	.	.	16g/	.	.	.	16g\JJ	.	.	.	.	.	.	.	.	.	.	.
8BB-/	6	.	8B-/	.	8d/	.	16b-/	.	.	.	16b-\LL	-se-	.	.	.	.	.	.	.	.	.	.
.	.	.	.	.	.	.	16g/JJ	.	.	.	16g\JJ	.	.	.	.	.	.	.	.	.	.	.
!	!	!	!	!	!	!	!	!	!	!	!LO:PB:g=original	!	!	!	!	!	!	!	!	!	!	!
!	!	!	!	!	!	!	!LO:TX:t=P:problem=mixed beam	!	!	!	!LO:SIC:v:s=16fn\LL	!	!	!	!	!	!	!	!	!	!	!
8C/J	n	.	8c/J	.	8G/J	.	16fn/LL	.	.	.	16f#\LL	-re-	.	.	.	.	.	.	.	.	.	.
!	!	!	!	!	!	!	!LO:SIC:v:s=16en/	!	!	!	!	!	!	!	!	!	!	!	!	!	!	!
.	.	.	.	.	.	.	16e-/	.	.	.	16en\JJ	.	.	.	.	.	.	.	.	.	.	.
8r	.	.	8r	.	8r	.	16dd\	.	.	.	16dd\LL	-re	.	.	.	.	.	.	.	.	.	.
.	.	.	.	.	.	.	16cc\JJ	.	.	.	16cc\JJ	.	.	.	.	.	.	.	.	.	.	.
=55	=55	=55	=55	=55	=55	=55	=55	=55	=55	=55	=55	=55	=55	=55	=55	=55	=55	=55	=55	=55	=55	=55
!LO:TX:t=P:problem=mixed beam	!	!	!LO:TX:t=P:problem=mixed beam	!	!	!	!	!	!	!	!	!	!	!	!	!	!	!	!	!	!	!
8En\L	6	.	8en\L	.	8g/L	.	8.cc\L	.	2ryy	2ryy	8.cc\L	no-	.	1r	.	.	2ryy	2ryy	.	.	.	.
8C\	7	.	8e\	.	8g/	.	.	.	.	.	.	.	.	.	.	.	.	.	.	.	.	.
.	.	.	.	.	.	.	16b-\Jk	.	.	.	16b-\Jk	.	.	.	.	.	.	.	.	.	.	.
8F\	.	.	8f\	.	8c/	.	16b-\LL	.	.	.	8a\	-bis	.	.	.	.	.	.	.	.	.	.
.	.	.	.	.	.	.	16a\	.	.	.	.	.	.	.	.	.	.	.	.	.	.	.
8AA/J	.	.	8A/J	.	8f/J	.	16cc\	.	.	.	8r	.	.	.	.	.	.	.	.	.	.	.
.	.	.	.	.	.	.	16ff\JJ	.	.	.	.	.	.	.	.	.	.	.	.	.	.	.
=56	=56	=56	=56	=56	=56	=56	=56	=56	=56	=56	=56	=56	=56	=56	=56	=56	=56	=56	=56	=56	=56	=56
!LO:TX:t=P:problem=mixed beam	!	!	!	!	!	!	!	!	!	!	!	!	!	!	!	!	!	!	!	!	!	!
.	.	.	.	.	.	.	16qqee-/	.	.	.	.	.	.	.	.	.	.	.	.	.	.	.
8BB-/L	.	.	8B-/L	.	8f/L	.	8dd\L	.	2ryy	2ryy	8dd\	mi-	.	.	.	.	2ryy	2ryy	0r	.	0r	.
8B-\	6	.	8B-/	.	8f/	.	16cc\L	.	.	.	16cc\LL	-se-	.	.	.	.	.	.	.	.	.	.
.	.	.	.	.	.	.	16b-\JJ	.	.	.	16b-\JJ	.	.	.	.	.	.	.	.	.	.	.
8c\	4	.	8c/	.	8f/	.	8a/L	.	.	.	8a\	-re-	.	.	.	.	.	.	.	.	.	.
!	!	!	!	!	!	!	!LO:TX:a:t=t:mod=	!	!	!	!	!	!	!	!	!	!	!	!	!	!	!
!	!	!	!	!	!	!	!LO:SIC:s=8gTJ	!	!	!	!	!	!	!	!	!	!	!	!	!	!	!
8C/J	#	.	8c/J	.	8en/J	.	8g/J	.	.	.	8g\	-re	.	.	.	.	.	.	.	.	.	.
!	!	!	!	!	!LO:LB:g=original	!	!	!	!	!	!	!	!	!LO:LB:g=original	!	!	!	!	!	!	!	!
=57	=57	=57	=57	=57	=57	=57	=57	=57	=57	=57	=57	=57	=57	=57	=57	=57	=57	=57	=57	=57	=57	=57
!LO:TX:t=P:problem=mixed beam	!	!	!LO:TX:t=P:problem=mixed beam	!	!	!	!	!	!	!	!	!	!	!	!	!	!	!	!	!	!	!
8F\L	.	.	8f\L	.	16f/LL	.	16a/LL	.	2ryy	2ryy	16a\LL	no-	.	4r	.	.	2ryy	2ryy	.	.	.	.
.	.	.	.	.	16c/	.	32g/L	.	.	.	32g\L	.	.	.	.	.	.	.	.	.	.	.
.	.	.	.	.	.	.	32f/J	.	.	.	32f\JJJ	.	.	.	.	.	.	.	.	.	.	.
8FF/	.	.	8F/	.	16A/	.	16f/	.	.	.	8f\	-bis	.	.	.	.	.	.	.	.	.	.
.	.	.	.	.	16A/JJ	.	16f/JJ	.	.	.	.	.	.	.	.	.	.	.	.	.	.	.
!	!	!	!	!	!	!	!LO:TX:t=P:problem=mixed beam	!	!	!	!	!	!	!	!	!	!	!	!	!	!	!
8FF/J	.	.	8F/J	.	8A/	.	8f/L	.	.	.	4r	.	.	8r	.	.	.	.	.	.	.	.
8r	.	.	8r	.	8r	.	16ff\L	.	.	.	.	.	.	16ff\LL	qui	.	.	.	.	.	.	.
.	.	.	.	.	.	.	16dd\JJ	.	.	.	.	.	.	16dd\JJ	.	.	.	.	.	.	.	.
!LO:LB:g=original	!	!	!	!	!	!	!	!	!	!	!	!	!	!	!	!	!	!	!	!	!	!
=58	=58	=58	=58	=58	=58	=58	=58	=58	=58	=58	=58	=58	=58	=58	=58	=58	=58	=58	=58	=58	=58	=58
*	*	*	*tremolo	*	*	*	*	*	*	*	*	*	*	*	*	*	*	*	*	*	*	*
8G\L	.	.	8G/L	.	8d/L	.	16cc\LL	.	2ryy	2ryy	0r	.	.	16cc\LL	tol-	.	2ryy	2ryy	.	.	.	.
.	.	.	.	.	.	.	16bn\	.	.	.	.	.	.	16bn\JJ	.	.	.	.	.	.	.	.
8G\	.	.	8G/	.	8d/	.	16b\	.	.	.	.	.	.	16b\	-lis	.	.	.	.	.	.	.
.	.	.	.	.	.	.	16b\JJ	.	.	.	.	.	.	16b\	pec-	.	.	.	.	.	.	.
8Bn\	6	.	8G/	.	8d/	.	16b\LL	.	.	.	.	.	.	16b\LL	-ca-	.	.	.	.	.	.	.
.	.	.	.	.	.	.	16dd\	.	.	.	.	.	.	16dd\JJ	.	.	.	.	.	.	.	.
8B\J	.	.	8G/J	.	8d/J	.	16g\	.	.	.	.	.	.	16dd\	-ta	.	.	.	.	.	.	.
.	.	.	.	.	.	.	16ff\JJ	.	.	.	.	.	.	16ff\	pec-	.	.	.	.	.	.	.
*	*	*	*Xtremolo	*	*	*	*	*	*	*	*	*	*	*	*	*	*	*	*	*	*	*
=59	=59	=59	=59	=59	=59	=59	=59	=59	=59	=59	=59	=59	=59	=59	=59	=59	=59	=59	=59	=59	=59	=59
8c\L	-	.	8G/L	.	8e-/L	.	16ff\LL	.	2ryy	2ryy	.	.	.	16ff\LL	-ca-	.	2ryy	2ryy	.	.	.	.
.	.	.	.	.	.	.	16ee-X\	.	.	.	.	.	.	16ee-\	.	.	.	.	.	.	.	.
!LO:SIC:v:s=8A-	!	!	!LO:SIC:v:s=8A-	!	!LO:SIC:v:s=8fJ	!	!	!	!	!	!	!	!	!	!	!	!	!	!	!	!	!
8A\	.	.	8A/	.	8e-/J	.	16dd\	.	.	.	.	.	.	16dd\	.	.	.	.	.	.	.	.
.	.	.	.	.	.	.	16cc\JJ	.	.	.	.	.	.	16cc\JJ	.	.	.	.	.	.	.	.
.	.	.	.	.	8qqg/	.	.	.	.	.	.	.	.	.	.	.	.	.	.	.	.	.
!	!	!	!LO:SIC:v:s=8A-	!	!	!	!	!	!	!	!	!	!	!	!	!	!	!	!	!	!	!
8F\	6	.	8A/	.	8f/L	.	16ee-\LL	.	.	.	.	.	.	16ee-\LL	.	.	.	.	.	.	.	.
.	.	.	.	.	.	.	16dd\	.	.	.	.	.	.	16dd\JJ	.	.	.	.	.	.	.	.
8G\J	n	.	8G/J	.	16e-/L	.	16cc\	.	.	.	.	.	.	16cc\LL	-ta	.	.	.	.	.	.	.
.	.	.	.	.	16d/JJ	.	16bn\JJ	.	.	.	.	.	.	16bn\JJ	.	.	.	.	.	.	.	.
=60	=60	=60	=60	=60	=60	=60	=60	=60	=60	=60	=60	=60	=60	=60	=60	=60	=60	=60	=60	=60	=60	=60
!LO:TX:t=P:problem=mixed beam	!	!	!LO:TX:t=P:problem=mixed beam	!	!	!	!LO:SIC:v:s=16bn\LL	!	!	!	!	!	!	!LO:SIC:v:s=16bn\LL	!	!	!	!	!	!	!	!
8C/L	-	.	8G/L	.	8e-/L	.	16b-\LL	.	2ryy	2ryy	.	.	.	16b-\LL	mun-	.	2ryy	2ryy	0r	.	0r	.
.	.	.	.	.	.	.	16cc\	.	.	.	.	.	.	16cc\JJ	.	.	.	.	.	.	.	.
8c\	.	.	8G/	.	8e-/	.	16cc\	.	.	.	.	.	.	8cc\	-di	.	.	.	.	.	.	.
!	!	!	!	!	!	!	!LO:SIC:v:s=16ee-JJ	!	!	!	!	!	!	!	!	!	!	!	!	!	!	!
.	.	.	.	.	.	.	16ee-\JJ 16cc\	.	.	.	.	.	.	.	.	.	.	.	.	.	.	.
8C/	6	.	8e-\	.	8g/	.	16ee-\LL	.	.	.	.	.	.	16ee-\LL	Sus-	.	.	.	.	.	.	.
.	.	.	.	.	.	.	16dd\JJ	.	.	.	.	.	.	16dd\JJ	.	.	.	.	.	.	.	.
!	!	!	!	!	!	!	!LO:LB:g=original	!	!	!	!	!	!	!	!	!	!	!	!	!	!	!
8E-/J	5	.	8c\J	.	8g/J	.	16cc\LL	.	.	.	.	.	.	16cc\	-ci-	.	.	.	.	.	.	.
.	.	.	.	.	.	.	16b-X\JJ	.	.	.	.	.	.	16b-X\	-pe	.	.	.	.	.	.	.
!	!	!	!LO:LB:g=original	!	!	!	!	!	!	!	!	!	!	!LO:LB:g=original	!	!	!	!	!	!	!	!
=61	=61	=61	=61	=61	=61	=61	=61	=61	=61	=61	=61	=61	=61	=61	=61	=61	=61	=61	=61	=61	=61	=61
!	!	!	!LO:TX:t=P:problem=mixed beam	!	!	!	!	!	!	!	!	!	!	!	!	!	!	!	!	!	!	!
*	*	*	*	*	*tremolo	*	*	*	*	*	*	*	*	*	*	*	*	*	*	*	*	*
8F\L	.	.	8f\L	.	8c/L	.	16b-/LL	.	2ryy	2ryy	.	.	.	8b-\	de-	.	2ryy	2ryy	.	.	.	.
.	.	.	.	.	.	.	16a/	.	.	.	.	.	.	.	.	.	.	.	.	.	.	.
8F\	.	.	8F/	.	8c/	.	16a/	.	.	.	.	.	.	8a\	-pre-	.	.	.	.	.	.	.
.	.	.	.	.	.	.	16a/JJ	.	.	.	.	.	.	.	.	.	.	.	.	.	.	.
!	!	!	!	!	!	!	!LO:TX:t=P:problem=mixed beam	!	!	!	!	!	!	!	!	!	!	!	!	!	!	!
8A\	6	.	8F/	.	8c/	.	16a\LL	.	.	.	.	.	.	16a\LL	-ca-	.	.	.	.	.	.	.
.	.	.	.	.	.	.	16cc\	.	.	.	.	.	.	16cc\JJ	.	.	.	.	.	.	.	.
8A\J	5	.	8F/J	.	8c/J	.	16f/	.	.	.	.	.	.	16cc\LL	-ti-	.	.	.	.	.	.	.
.	.	.	.	.	.	.	16ff\JJ	.	.	.	.	.	.	16ee-\JJ	.	.	.	.	.	.	.	.
*	*	*	*	*	*Xtremolo	*	*	*	*	*	*	*	*	*	*	*	*	*	*	*	*	*
=62	=62	=62	=62	=62	=62	=62	=62	=62	=62	=62	=62	=62	=62	=62	=62	=62	=62	=62	=62	=62	=62	=62
8B-\L	.	.	8F/L	.	8d/L	.	16ee-\LL	.	2ryy	2ryy	2r	.	.	16ee-\LL	-o-	.	2ryy	2ryy	.	.	.	.
.	.	.	.	.	.	.	16dd\	.	.	.	.	.	.	16dd\JJ	.	.	.	.	.	.	.	.
8G\	.	.	8G/	.	8d/J	.	16cc\	.	.	.	.	.	.	16cc\LL	-nem	.	.	.	.	.	.	.
.	.	.	.	.	.	.	16b-\JJ	.	.	.	.	.	.	16b-\JJ	.	.	.	.	.	.	.	.
!	!	!	!LO:SIC:v:s=8G	!	!	!	!	!	!	!	!	!	!	!	!	!	!	!	!	!	!	!
8E-\	6	.	8A/	.	16f/LL	.	16dd\LL	.	.	.	.	.	.	16dd\LL	nos-	.	.	.	.	.	.	.
.	.	.	.	.	16e-/	.	16cc\	.	.	.	.	.	.	16cc\	.	.	.	.	.	.	.	.
8F\J	.	.	8F/J	.	16d/	.	16b-\	.	.	.	.	.	.	16b-\	.	.	.	.	.	.	.	.
.	.	.	.	.	16c/JJ	.	16a\JJ	.	.	.	.	.	.	16a\JJ	.	.	.	.	.	.	.	.
=63	=63	=63	=63	=63	=63	=63	=63	=63	=63	=63	=63	=63	=63	=63	=63	=63	=63	=63	=63	=63	=63	=63
!LO:TX:t=P:problem=mixed beam	!	!	!	!	!	!	!	!	!	!	!	!	!	!	!	!	!	!	!	!	!	!
*	*	*	*tremolo	*	*	*	*	*	*	*	*	*	*	*	*	*	*	*	*	*	*	*
.	.	.	.	.	.	.	.	.	.	.	.	.	.	8qqa/	.	.	.	.	.	.	.	.
!	!	!	!	!	!LO:SIC:s=(16cLL	!	!LO:SIC:s=(16aLL	!	!	!	!	!	!	!	!	!	!	!	!	!	!	!
8BB-/L	.	.	8B-/L	.	16c/LL	.	16a\LL	.	2ryy	2ryy	4r	.	.	4b-\	-tram	.	2ryy	2ryy	.	.	.	.
!	!	!	!	!	!LO:SIC:s=16dJJ)	!	!LO:SIC:s=16b-)	!	!	!	!	!	!	!	!	!	!	!	!	!	!	!
.	.	.	.	.	16d/	.	16b-\	.	.	.	.	.	.	.	.	.	.	.	.	.	.	.
!	!	!	!	!	!LO:SIC:s=(16d	!	!LO:SIC:s=(16b-	!	!	!	!	!	!	!	!	!	!	!	!	!	!	!
8B-\	.	.	8B-/	.	16d/	.	16b-\	.	.	.	.	.	.	.	.	.	.	.	.	.	.	.
!	!	!	!	!	!LO:SIC:s=16b-JJ)	!	!LO:SIC:s=16ddJJ)	!	!	!	!	!	!	!	!	!	!	!	!	!	!	!
.	.	.	.	.	16b-/JJ	.	16dd\JJ	.	.	.	.	.	.	.	.	.	.	.	.	.	.	.
!	!	!	!	!	!LO:SIC:s=(16b-LL	!	!	!	!	!	!	!	!	!	!	!	!	!	!	!	!	!
8BB-/J	.	.	8B-/	.	16b-\LL	.	(16dd\LL	.	.	.	16b-\LL	qui	.	16dd\LL	qui	.	.	.	.	.	.	.
!	!	!	!	!	!LO:SIC:s=16cc)	!	!LO:SIC:s=16ee-)	!	!	!	!	!	!	!	!	!	!	!	!	!	!	!
.	.	.	.	.	16cc\	.	16ee-\	.	.	.	16cc\	.	.	16ee-\	.	.	.	.	.	.	.	.
!	!	!	!	!	!LO:SIC:s=(16cc	!	!LO:SIC:s=(16ee-	!	!	!	!	!	!	!	!	!	!	!	!	!	!	!
8r	.	.	8B-/J	.	16cc\	.	16ee-\	.	.	.	16cc\	.	.	16ee-\	.	.	.	.	.	.	.	.
!	!	!	!	!	!LO:SIC:s=16ddJJ)	!	!	!	!	!	!	!	!	!	!	!	!	!	!	!	!	!
.	.	.	.	.	16dd\JJ	.	16ff\JJ)	.	.	.	16dd\JJ	.	.	16ff\JJ	.	.	.	.	.	.	.	.
*	*	*	*Xtremolo	*	*	*	*	*	*	*	*	*	*	*	*	*	*	*	*	*	*	*
!	!	!	!	!	!	!	!	!	!	!	!LO:LB:g=original	!	!	!	!	!	!	!	!	!	!	!
=64	=64	=64	=64	=64	=64	=64	=64	=64	=64	=64	=64	=64	=64	=64	=64	=64	=64	=64	=64	=64	=64	=64
*tremolo	*	*	*	*	*	*	*	*	*	*	*	*	*	*	*	*	*	*	*	*	*	*
.	.	.	.	.	.	.	16qqff/	.	.	.	8qqdd/	.	.	8qqff/	.	.	.	.	.	.	.	.
8F\L	7	.	8A/L	.	16dd\LL	.	16ee-\LL	.	2ryy	2ryy	16cc\LL	se-	.	16ee-\LL	Se-	.	2ryy	2ryy	0r	.	0r	.
.	.	.	.	.	32cc\L	.	32dd\L	.	.	.	32b-\L	.	.	32dd\L	.	.	.	.	.	.	.	.
.	.	.	.	.	32b-\J	.	32cc\J	.	.	.	32a\JJJ	.	.	32cc\JJJ	.	.	.	.	.	.	.	.
8F\	.	.	8A/	.	16a\	.	16cc\	.	.	.	16a\	-des	.	16cc\	-des	.	.	.	.	.	.	.
.	.	.	.	.	16a\JJ	.	16cc\JJ	.	.	.	16a\	ad	.	16cc\	ad	.	.	.	.	.	.	.
!	!	!	!	!	!LO:LB:g=original	!	!	!	!	!	!	!	!	!	!	!	!	!	!	!	!	!
8F\	.	.	8F/	.	(16a/LL	.	(16cc\LL	.	.	.	16a\LL	dex-	.	16cc\LL	dex-	.	.	.	.	.	.	.
!	!	!	!	!	!	!	!LO:SIC:s=16dd)	!	!	!	!	!	!	!	!	!	!	!	!	!	!	!
.	.	.	.	.	16b-/)	.	16dd\	.	.	.	16b-\JJ	.	.	16dd\JJ	.	.	.	.	.	.	.	.
!	!	!	!	!	!	!	!LO:SIC:s=(16dd	!	!	!	!	!	!	!	!	!	!	!	!	!	!	!
8F\J	.	.	8F/J	.	(16b-/	.	16dd\	.	.	.	16b-\	-te-	.	16dd\	-te-	.	.	.	.	.	.	.
.	.	.	.	.	16cc/JJ)	.	16ee-\JJ)	.	.	.	16cc\	-ram	.	16ee-\	-ram	.	.	.	.	.	.	.
!	!	!	!	!	!	!	!	!	!	!	!	!	!	!LO:LB:g=original	!	!	!	!	!	!	!	!
=65	=65	=65	=65	=65	=65	=65	=65	=65	=65	=65	=65	=65	=65	=65	=65	=65	=65	=65	=65	=65	=65	=65
*	*	*	*tremolo	*	*	*	*	*	*	*	*	*	*	*	*	*	*	*	*	*	*	*
.	.	.	.	.	.	.	16qqee-/	.	.	.	.	.	.	8qqee-/	.	.	.	.	.	.	.	.
8BB-/L	.	.	8B-/L	.	16b-/LL	.	16dd\LL	.	2ryy	2ryy	16b-\LL	Pa-	.	16dd\LL	Pa-	.	2ryy	2ryy	.	.	.	.
.	.	.	.	.	16f/	.	32cc\L	.	.	.	16f\JJ	.	.	32cc\L	.	.	.	.	.	.	.	.
.	.	.	.	.	.	.	32b-\J	.	.	.	.	.	.	32b-\JJJ	.	.	.	.	.	.	.	.
8BB-/	.	.	8B-/	.	16d/	.	16b-\	.	.	.	8d\	-tris	.	8b-\	-tris	.	.	.	.	.	.	.
.	.	.	.	.	16d/JJ	.	16b-\JJ	.	.	.	.	.	.	.	.	.	.	.	.	.	.	.
8BB-/	.	.	8B-/	.	(16b-\LL	.	(16dd\LL	.	.	.	16b-\LL	mi-	.	16dd\LL	mi-	.	.	.	.	.	.	.
!	!	!	!	!	!	!	!LO:SIC:s=16ee-)	!	!	!	!	!	!	!	!	!	!	!	!	!	!	!
.	.	.	.	.	16cc\)	.	16ee-\	.	.	.	16cc\JJ	.	.	16ee-\JJ	.	.	.	.	.	.	.	.
!	!	!	!	!	!	!	!LO:SIC:s=16ee-(	!	!	!	!	!	!	!	!	!	!	!	!	!	!	!
8BB-/J	.	.	8B-/J	.	(16cc\	.	16ee-\)	.	.	.	16cc\LL	-se-	.	16ee-\LL	-se-	.	.	.	.	.	.	.
!	!	!	!	!	!	!	!LO:SIC:s=16ffJJ)	!	!	!	!	!	!	!	!	!	!	!	!	!	!	!
.	.	.	.	.	16dd\JJ)	.	16ff\JJ	.	.	.	16dd\JJ	.	.	16ff\JJ	.	.	.	.	.	.	.	.
*	*	*	*Xtremolo	*	*	*	*	*	*	*	*	*	*	*	*	*	*	*	*	*	*	*
=66	=66	=66	=66	=66	=66	=66	=66	=66	=66	=66	=66	=66	=66	=66	=66	=66	=66	=66	=66	=66	=66	=66
.	.	.	.	.	8qqdd/	.	16qqff/	.	.	.	.	.	.	8qqff/	.	.	.	.	.	.	.	.
8F\L	7	.	8A/L	.	16cc/LL	.	16ee-\LL	.	2ryy	2ryy	16cc\LL	-re-	.	16ee-\LL	-re-	.	2ryy	2ryy	.	.	.	.
.	.	.	.	.	32b-/L	.	32dd\L	.	.	.	32b-\L	.	.	32dd\L	.	.	.	.	.	.	.	.
.	.	.	.	.	32a/J	.	32cc\J	.	.	.	32a\JJJ	.	.	32cc\JJJ	.	.	.	.	.	.	.	.
8F\	.	.	8A/	.	16a/	.	16cc\	.	.	.	8a\	-re	.	8cc\	-re	.	.	.	.	.	.	.
.	.	.	.	.	16a/JJ	.	16cc\JJ	.	.	.	.	.	.	.	.	.	.	.	.	.	.	.
8F\	.	.	8F/	.	(16a/LL	.	(16cc\LL	.	.	.	16a\LL	mi-	.	16cc\LL	mi-	.	.	.	.	.	.	.
!	!	!	!	!	!	!	!LO:SIC:s=16dd)	!	!	!	!	!	!	!	!	!	!	!	!	!	!	!
.	.	.	.	.	16b-/)	.	16dd\	.	.	.	16b-\JJ	.	.	16dd\JJ	.	.	.	.	.	.	.	.
!	!	!	!	!	!	!	!LO:SIC:s=(16dd	!	!	!	!	!	!	!	!	!	!	!	!	!	!	!
8F\J	.	.	8F/J	.	(16b-/	.	16dd\)	.	.	.	16b-\LL	-se-	.	16dd\LL	-se-	.	.	.	.	.	.	.
!	!	!	!	!	!	!	!LO:SIC:s=16ee-JJ)	!	!	!	!	!	!	!	!	!	!	!	!	!	!	!
.	.	.	.	.	16cc/JJ)	.	16ee-\JJ	.	.	.	16cc\JJ	.	.	16ee-\JJ	.	.	.	.	.	.	.	.
*Xtremolo	*	*	*	*	*	*	*	*	*	*	*	*	*	*	*	*	*	*	*	*	*	*
!	!	!	!	!	!	!	!LO:LB:g=original	!	!	!	!LO:LB:g=original	!	!	!	!	!	!	!	!	!	!	!
=67	=67	=67	=67	=67	=67	=67	=67	=67	=67	=67	=67	=67	=67	=67	=67	=67	=67	=67	=67	=67	=67	=67
!LO:TX:t=P:problem=mixed beam	!	!	!	!	!	!	!LO:SIC:s=(16ccLL	!	!	!	!	!	!	!	!	!	!	!	!	!	!	!
8BB-/L	.	.	8B-/L	.	(16b-\LL	.	16cc\LL	.	2ryy	2ryy	16b-\LL	-re-	.	16dd\LL	-re-	.	2ryy	2ryy	.	.	.	.
!	!	!	!	!	!	!	!LO:SIC:s=16ee-)	!	!	!	!	!	!	!	!	!	!	!	!	!	!	!
.	.	.	.	.	16cc\)	.	(16ee-\	.	.	.	16cc\	.	.	16ee-\	.	.	.	.	.	.	.	.
!	!	!	!	!	!	!	!LO:SIC:s=(16ee-	!	!	!	!	!	!	!	!	!	!	!	!	!	!	!
8B-\	.	.	8B-/	.	(16cc\	.	16ee-\	.	.	.	16cc\	.	.	16ee-\	.	.	.	.	.	.	.	.
.	.	.	.	.	16dd\JJ)	.	16ff\JJ)	.	.	.	16dd\JJ	.	.	16ff\JJ	.	.	.	.	.	.	.	.
!	!	!	!	!	!	!	!LO:SIC:s=(16ffLL	!	!	!	!	!	!	!	!	!	!	!	!	!	!	!
8A\	.	.	8A/	.	(16dd\LL	.	16ff\LL	.	.	.	16dd\LL	.	.	16ff\LL	.	.	.	.	.	.	.	.
!	!	!	!	!	!	!	!LO:SIC:s=16ee-)	!	!	!	!	!	!	!	!	!	!	!	!	!	!	!
.	.	.	.	.	16cc\)	.	(16ee-\	.	.	.	16cc\JJ	.	.	16ee-\JJ	.	.	.	.	.	.	.	.
!	!	!	!	!	!	!	!LO:SIC:s=(16ee-	!	!	!	!	!	!	!	!	!	!	!	!	!	!	!
8B-\J	.	.	8B-/J	.	(16cc\	.	16ee-\	.	.	.	16cc\LL	-re	.	16ee-\LL	re	.	.	.	.	.	.	.
.	.	.	.	.	16b-\JJ)	.	16dd\JJ)	.	.	.	16b-\JJ	.	.	16dd\JJ	.	.	.	.	.	.	.	.
=68	=68	=68	=68	=68	=68	=68	=68	=68	=68	=68	=68	=68	=68	=68	=68	=68	=68	=68	=68	=68	=68	=68
!LO:TX:t=P:problem=mixed beam	!	!	!LO:TX:t=P:problem=mixed beam	!	!	!	!LO:TX:a:t=t:mod=	!	!	!	!	!	!	!	!	!	!	!	!	!	!	!
.	.	.	.	.	.	.	.	.	.	.	.	.	.	8qqee-/	.	.	.	.	.	.	.	.
!	!	!	!	!	!	!	!LO:SIC:s=8ddtL	!	!	!	!	!	!	!	!	!	!	!	!	!	!	!
8F\L	.	.	8f\L	.	8b-/L	.	8dd\L	.	2ryy	2ryy	8b-\	no-	.	8dd\	no-	.	2ryy	2ryy	0r	.	0r	.
8FF/	.	.	8F/	.	8a/J	.	8cc\J	.	.	.	8a\	-bis	.	8cc\	-bis	.	.	.	.	.	.	.
8F\J	.	.	8f\J	.	4r	.	8r	.	.	.	4r	.	.	4r	.	.	.	.	.	.	.	.
8r	.	.	8r	.	.	.	16ff\LL	.	.	.	.	.	.	.	.	.	.	.	.	.	.	.
.	.	.	.	.	.	.	16dd\JJ	.	.	.	.	.	.	.	.	.	.	.	.	.	.	.
!	!	!	!	!	!	!	!	!	!	!	!	!	!	!LO:LB:g=original	!	!	!	!	!	!	!	!
=69	=69	=69	=69	=69	=69	=69	=69	=69	=69	=69	=69	=69	=69	=69	=69	=69	=69	=69	=69	=69	=69	=69
!LO:TX:t=P:problem=mixed beam	!	!	!	!	!	!	!	!	!	!	!	!	!	!	!	!	!	!	!	!	!	!
8B-\L	.	.	8B-/L	.	8d/L	.	8.b-\L	.	2ryy	2ryy	8.d\	Quo-	.	8.b-\	Quo-	.	2ryy	2ryy	.	.	.	.
8BB-/J	.	.	8B-/J	.	8d/J	.	.	.	.	.	.	.	.	.	.	.	.	.	.	.	.	.
.	.	.	.	.	.	.	16dd\Jk	.	.	.	16f\	-ni-	.	16dd\	-ni-	.	.	.	.	.	.	.
8r	.	.	8r	.	16d/LL	.	16ff\LL	.	.	.	16d\LL	-am	.	16ff\LL	-am	.	.	.	.	.	.	.
.	.	.	.	.	16g/	.	16bb-\	.	.	.	16g\JJ	.	.	16bb-\JJ	.	.	.	.	.	.	.	.
8F\	.	.	8B-/	.	16f/	.	16aa\	.	.	.	16f\LL	tu	.	16aa\LL	tu	.	.	.	.	.	.	.
.	.	.	.	.	16e-/JJ	.	16gg\JJ	.	.	.	16e-\JJ	.	.	16gg\JJ	.	.	.	.	.	.	.	.
!LO:LB:g=original	!	!	!	!	!	!	!	!	!	!	!	!	!	!	!	!	!	!	!	!	!	!
=70	=70	=70	=70	=70	=70	=70	=70	=70	=70	=70	=70	=70	=70	=70	=70	=70	=70	=70	=70	=70	=70	=70
!LO:TX:t=P:problem=mixed beam	!	!	!	!	!	!	!	!	!	!	!	!	!	!	!	!	!	!	!	!	!	!
8B-\L	.	.	8B-/L	.	8e-/L	.	8gg\L	.	2ryy	2ryy	8e-\	so-	.	8gg\	so-	.	2ryy	2ryy	.	.	.	.
16BB-/L	.	.	16B-/L	.	16d/L	.	8ff\J	.	.	.	8d\	-lus	.	8ff\	-lus	.	.	.	.	.	.	.
16C/JJ	.	.	16c/JJ	.	16e-/JJ	.	.	.	.	.	.	.	.	.	.	.	.	.	.	.	.	.
8D\L	.	.	8d\L	.	8f/L	.	16r	.	.	.	8r	.	.	8r	.	.	.	.	.	.	.	.
.	.	.	.	.	.	.	16b-\LL	.	.	.	.	.	.	.	.	.	.	.	.	.	.	.
8D\J	.	.	8d\J	.	8f/J	.	16b-\	.	.	.	8f\	tu	.	8b-\	tu	.	.	.	.	.	.	.
.	.	.	.	.	.	.	16b-\JJ	.	.	.	.	.	.	.	.	.	.	.	.	.	.	.
!	!	!	!LO:LB:g=original	!	!LO:LB:g=original	!	!	!	!	!	!	!	!	!	!	!	!	!	!	!	!	!
=71	=71	=71	=71	=71	=71	=71	=71	=71	=71	=71	=71	=71	=71	=71	=71	=71	=71	=71	=71	=71	=71	=71
!	!	!	!	!	!	!	!LO:SIC:s=(16bLL	!	!	!	!	!	!	!	!	!	!	!	!	!	!	!
8E-\L	.	.	8e-\L	.	8g/L	.	16bn\LL	.	2ryy	2ryy	8g\	so-	.	16bn\LL	so-	.	2ryy	2ryy	.	.	.	.
!	!	!	!	!	!	!	!LO:SIC:s=16cc)	!	!	!	!	!	!	!	!	!	!	!	!	!	!	!
.	.	.	.	.	.	.	(16cc\	.	.	.	.	.	.	16cc\JJ	.	.	.	.	.	.	.	.
!	!	!	!	!	!	!	!LO:SIC:s=(16ee-	!	!	!	!	!	!	!	!	!	!	!	!	!	!	!
8E-\	.	.	8e-\	.	8g/	.	16ee-\)	.	.	.	8g\	-lus	.	16ee-\LL	-lus	.	.	.	.	.	.	.
!	!	!	!	!	!	!	!LO:SIC:s=16ccJJ)	!	!	!	!	!	!	!	!	!	!	!	!	!	!	!
.	.	.	.	.	.	.	16cc\JJ	.	.	.	.	.	.	16cc\JJ	.	.	.	.	.	.	.	.
!	!	!	!	!	!	!	!LO:TX:t=P:problem=mixed beam	!	!	!	!LO:LB:g=original	!	!	!	!	!	!	!	!	!	!	!
!	!	!	!	!	!	!	!LO:SIC:s=(16b-LL	!	!	!	!	!	!	!	!	!	!	!	!	!	!	!
8F\J	.	.	8f\J	.	8c/J	.	16b-X/LL	.	.	.	8f\	Do-	.	16b-X\LL	Do-	.	.	.	.	.	.	.
!	!	!	!	!	!	!	!LO:SIC:s=16a)	!	!	!	!	!	!	!	!	!	!	!	!	!	!	!
.	.	.	.	.	.	.	16a/	.	.	.	.	.	.	16a\JJ	.	.	.	.	.	.	.	.
!	!	!	!	!	!	!	!LO:SIC:s=(16gg	!	!	!	!	!	!	!	!	!	!	!	!	!	!	!
8r	.	.	8r	.	8r	.	16gg\	.	.	.	8a\	-mi-	.	16gg\LL	-mi-	.	.	.	.	.	.	.
!	!	!	!	!	!	!	!LO:SIC:s=16ffJJ)	!	!	!	!	!	!	!	!	!	!	!	!	!	!	!
.	.	.	.	.	.	.	16ff\JJ	.	.	.	.	.	.	16ff\JJ	.	.	.	.	.	.	.	.
=72	=72	=72	=72	=72	=72	=72	=72	=72	=72	=72	=72	=72	=72	=72	=72	=72	=72	=72	=72	=72	=72	=72
!	!	!	!	!	!	!	!	!	!	!	!	!	!	!	!	!	!	!	!LO:MO:mod=1r	!	!LO:MO:mod=1r	!
8A\L	.	.	8A/L	.	8c/L	.	8.ff\L	.	2ryy	2ryy	8cc\	-nus	.	8ff\	-nus	.	2ryy	2ryy	0r	.	0r	.
8F\	.	.	8c/	.	8c/	.	.	.	.	.	8cc\	tu	.	8ee-\	tu	.	.	.	.	.	.	.
.	.	.	.	.	.	.	16ee-\Jk	.	.	.	.	.	.	.	.	.	.	.	.	.	.	.
8B-\	.	.	8B-/	.	8d/	.	16ee-\LL	.	.	.	8b-\	so-	.	16ee-\LL	so-	.	.	.	.	.	.	.
.	.	.	.	.	.	.	16dd\	.	.	.	.	.	.	16dd\JJ	.	.	.	.	.	.	.	.
8D\J	.	.	8d/J	.	8f/J	.	16ff\	.	.	.	8b-\	-lus	.	16ff\LL	-lus	.	.	.	.	.	.	.
.	.	.	.	.	.	.	16bb-\JJ	.	.	.	.	.	.	16bb-\JJ	.	.	.	.	.	.	.	.
!	!	!	!	!	!	!	!	!	!	!	!	!	!	!LO:LB:g=original	!	!	!	!	!	!	!	!
=73	=73	=73	=73	=73	=73	=73	=73	=73	=73	=73	=73	=73	=73	=73	=73	=73	=73	=73	=73	=73	=73	=73
!LO:TX:t=P:problem=mixed beam	!	!	!LO:TX:t=P:problem=mixed beam	!	!	!	!	!	!	!	!	!	!	!	!	!	!	!	!	!	!	!
.	.	.	.	.	.	.	16qqaa/	.	.	.	.	.	.	.	.	.	.	.	.	.	.	.
8E-\L	.	.	8e-\L	.	8b-/L	.	8gg\L	.	2ryy	2ryy	4b-\	al-	.	8gg\L	al-	.	2ryy	2ryy	.	.	.	.
8E-\	.	.	8e-\	.	8b-/	.	16ff\L	.	.	.	.	.	.	16ff\L	.	.	.	.	.	.	.	.
.	.	.	.	.	.	.	16ee-\JJ	.	.	.	.	.	.	16ee-\JJ	.	.	.	.	.	.	.	.
8F\	.	.	8f\	.	8b-/	.	8dd\L	.	.	.	8b-\	-tiſ-	.	8dd\	-tis-	.	.	.	.	.	.	.
8FF/J	.	.	8F/J	.	8a/J	.	8cc\J	.	.	.	8a\	-si-	.	8cc\	-si-	.	.	.	.	.	.	.
=74	=74	=74	=74	=74	=74	=74	=74	=74	=74	=74	=74	=74	=74	=74	=74	=74	=74	=74	=74	=74	=74	=74
!LO:TX:t=P:problem=mixed beam	!	!	!	!	!	!	!	!	!	!	!	!	!	!	!	!	!	!	!LO:MO:null:mod=2r	!	!LO:MO:null:mod=2r	!
8BB-\L	.	.	8B-/L	.	8b-/L	.	16dd\LL	.	2ryy	2ryy	8b-\	-mus	.	8b-\	-mus	.	2ryy	2ryy	.	.	.	.
.	.	.	.	.	.	.	32cc\L	.	.	.	.	.	.	.	.	.	.	.	.	.	.	.
.	.	.	.	.	.	.	32b-\J	.	.	.	.	.	.	.	.	.	.	.	.	.	.	.
8B-\	.	.	8B-/	.	8d/	.	16b-\	.	.	.	8r	.	.	8r	.	.	.	.	.	.	.	.
.	.	.	.	.	.	.	16b-\JJ	.	.	.	.	.	.	.	.	.	.	.	.	.	.	.
!	!	!	!	!	!	!	!LO:LB:g=original	!	!	!	!	!	!	!	!	!	!	!	!	!	!	!
8BB-/J	.	.	8B-/J	.	8d/J	.	8b-\	.	.	.	4r	.	.	4r	.	.	.	.	.	.	.	.
8r	.	.	8r	.	8r	.	8r	.	.	.	.	.	.	.	.	.	.	.	.	.	.	.
!!LO:MO:ori
=75	=75	=75	=75	=75	=75	=75	=75	=75	=75	=75	=75	=75	=75	=75	=75	=75	=75	=75	=75	=75	=75	=75
!LO:TX:t=P:problem=brak taktu	!	!	!LO:TX:t=P:problem=brak taktu	!	!LO:TX:t=P:problem=brak taktu	!	!LO:TX:t=P:problem=brak taktu	!	!	!	!LO:TX:t=P:problem=brak taktu	!	!	!LO:TX:t=P:problem=brak taktu	!	!	!	!	!LO:TX:t=P:problem=zbędny takt	!	!LO:TX:t=P:problem=zbędny takt	!
!	!	!	!	!	!	!	!	!	!	!	!	!	!	!	!	!	!	!	!LO:MO:null:mod=2r	!	!LO:MO:null:mod=2r	!
2ryy	.	.	2ryy	.	2ryy	.	2ryy	.	2ryy	2ryy	2ryy	.	.	2ryy	.	.	2ryy	2ryy	.	.	.	.
!!LO:MO:end
=76	=76	=76	=76	=76	=76	=76	=76	=76	=76	=76	=76	=76	=76	=76	=76	=76	=76	=76	=76	=76	=76	=76
*tremolo	*	*	*tremolo	*	*	*	*	*	*	*	*	*	*	*2\right	*	*	*	*	*	*	*	*
!	!	!	!	!	!	!	!	!	!	!	!	!	!	!	!	!	!	!	!	!	!	!LO:MO:null:mod=!LO&colon;DY&colon;ed=brack
!	!	!	!	!	!	!	!	!	!	!	!	!	!	!	!	!	!	!	!	!	!	!
!	!	!	!	!	!	!	!	!	!	!	!	!	!	!	!	!	!	!	!	!	!	!LO:MO:null:mod=p
8BB-/L	7- 5	.	8d\L	.	(16d/LL	.	(16b-/LL	.	2ryy	2ryy	2f\	Je-	.	2a-X\	Je-	.	2ryy	2ryy	2ff\	p	2aa-X\	.
.	.	.	.	.	16f/)	.	16a-X/)	.	.	.	.	.	.	.	.	.	.	.	.	.	.	.
8BB-/	.	.	8d\	.	16f/|	.	16a-/|	.	.	.	.	.	.	.	.	.	.	.	.	.	.	.
.	.	.	.	.	16f/JJ|	.	16a-/JJ|	.	.	.	.	.	.	.	.	.	.	.	.	.	.	.
8BB-/	.	.	8d\	.	(16d/LL	.	(16f/LL	.	.	.	.	.	.	.	.	.	.	.	.	.	.	.
.	.	.	.	.	16f/)	.	16a-/)	.	.	.	.	.	.	.	.	.	.	.	.	.	.	.
8BB-/J	.	.	8d\J	.	16f/|	.	16a-/|	.	.	.	.	.	.	.	.	.	.	.	.	.	.	.
.	.	.	.	.	16f/JJ|	.	16a-/JJ|	.	.	.	.	.	.	.	.	.	.	.	.	.	.	.
=77	=77	=77	=77	=77	=77	=77	=77	=77	=77	=77	=77	=77	=77	=77	=77	=77	=77	=77	=77	=77	=77	=77
!	!	!	!	!	!	!	!LO:SIC:s=(16f#LL	!	!	!	!	!	!	!	!	!	!	!	!	!	!	!
8BB-/L	6 4	.	8B-/L	.	(16d/LL	.	16f#X/LL	.	2ryy	2ryy	2e-\	-su	.	2g\	-su	.	2ryy	2ryy	2ee-\	.	2gg\	.
!	!	!	!	!	!	!	!LO:TX:b:t=g:mod=	!	!	!	!	!	!	!	!	!	!	!	!	!	!	!
!	!	!	!	!	!	!	!LO:SIC:s=16g)	!	!	!	!	!	!	!	!	!	!	!	!	!	!	!
.	.	.	.	.	16e-/)	.	16g/	.	.	.	.	.	.	.	.	.	.	.	.	.	.	.
!	!	!	!	!	!	!	!LO:TX:b:t=g:mod=	!	!	!	!	!	!	!	!	!	!	!	!	!	!	!
8BB-/	.	.	8B-/	.	16e-/|	.	16g/	.	.	.	.	.	.	.	.	.	.	.	.	.	.	.
!	!	!	!	!	!	!	!LO:TX:b:t=g:mod=	!	!	!	!	!	!	!	!	!	!	!	!	!	!	!
.	.	.	.	.	16e-/JJ|	.	16g/JJ	.	.	.	.	.	.	.	.	.	.	.	.	.	.	.
!	!	!	!	!	!	!	!LO:SIC:s=(16f#LL	!	!	!	!	!	!	!	!	!	!	!	!	!	!	!
8BB-/	.	.	8B-/	.	(16d/LL	.	16f#/LL	.	.	.	.	.	.	.	.	.	.	.	.	.	.	.
!	!	!	!	!	!	!	!LO:SIC:s=16g)	!	!	!	!	!	!	!	!	!	!	!	!	!	!	!
.	.	.	.	.	16e-/)	.	16g/	.	.	.	.	.	.	.	.	.	.	.	.	.	.	.
8BB-/J	.	.	8B-/J	.	16e-/|	.	16g/	.	.	.	.	.	.	.	.	.	.	.	.	.	.	.
.	.	.	.	.	16e-/JJ|	.	16g/JJ	.	.	.	.	.	.	.	.	.	.	.	.	.	.	.
=78	=78	=78	=78	=78	=78	=78	=78	=78	=78	=78	=78	=78	=78	=78	=78	=78	=78	=78	=78	=78	=78	=78
!	!	!	!	!	!	!	!LO:SIC:s=(16ee-LL	!	!	!	!	!	!	!	!	!	!	!	!	!	!	!
8BB-/L	7n 2	.	8F/L	.	(16c/LL	.	16ee-\LL	.	2ryy	2ryy	2e-\	Chri-	.	2an\	Chri-	.	2ryy	2ryy	2ee-\	.	2aan\	.
!	!	!	!	!	!	!	!LO:SIC:s=16a)	!	!	!	!	!	!	!	!	!	!	!	!	!	!	!
.	.	.	.	.	16e-/)	.	16an/	.	.	.	.	.	.	.	.	.	.	.	.	.	.	.
8BB-/	.	.	8F/	.	16e-/|	.	16a/	.	.	.	.	.	.	.	.	.	.	.	.	.	.	.
.	.	.	.	.	16e-/JJ|	.	16a/JJ	.	.	.	.	.	.	.	.	.	.	.	.	.	.	.
!	!	!	!	!	!	!	!LO:SIC:s=(16b-LL	!	!	!	!	!	!	!	!	!	!	!	!	!	!	!
8BB-/	.	.	8F/	.	(16c/LL	.	16b-/LL	.	.	.	.	.	.	.	.	.	.	.	.	.	.	.
!	!	!	!	!	!	!	!LO:SIC:s=16a)	!	!	!	!	!	!	!	!	!	!	!	!	!	!	!
.	.	.	.	.	16e-/)	.	16a/	.	.	.	.	.	.	.	.	.	.	.	.	.	.	.
8BB-/J	.	.	8F/J	.	16e-/|	.	16a/	.	.	.	.	.	.	.	.	.	.	.	.	.	.	.
.	.	.	.	.	16e-/JJ|	.	16a/JJ	.	.	.	.	.	.	.	.	.	.	.	.	.	.	.
=79	=79	=79	=79	=79	=79	=79	=79	=79	=79	=79	=79	=79	=79	=79	=79	=79	=79	=79	=79	=79	=79	=79
!	!	!	!	!	!	!	!LO:SIC:s=(16ccLL	!	!	!	!	!	!	!	!	!	!	!	!	!	!	!
8BB-/L	8 3	.	8B-/L	.	(16e-/LL	.	16cc\LL	.	2ryy	2ryy	2d\	-ste	.	2b-\	-ste	.	2ryy	2ryy	2dd\	.	2bb-\	.
!	!	!	!	!	!	!	!LO:SIC:s=16b-)	!	!	!	!	!	!	!	!	!	!	!	!	!	!	!
.	.	.	.	.	16d/)	.	16b-\	.	.	.	.	.	.	.	.	.	.	.	.	.	.	.
8BB-/	.	.	8B-/	.	16d/	.	16b-\	.	.	.	.	.	.	.	.	.	.	.	.	.	.	.
.	.	.	.	.	16d/JJ	.	16b-\JJ	.	.	.	.	.	.	.	.	.	.	.	.	.	.	.
!	!	!	!	!	!	!	!LO:SIC:s=(16aLL	!	!	!	!	!	!	!	!	!	!	!	!	!	!	!
8BB-/	.	.	8B-/	.	(16c/LL	.	16a\LL	.	.	.	.	.	.	.	.	.	.	.	.	.	.	.
!	!	!	!	!	!	!	!LO:SIC:s=16b-)	!	!	!	!	!	!	!	!	!	!	!	!	!	!	!
.	.	.	.	.	16d/)	.	16b-\	.	.	.	.	.	.	.	.	.	.	.	.	.	.	.
8BB-/J	.	.	8B-/J	.	16d/|	.	16b-\	.	.	.	.	.	.	.	.	.	.	.	.	.	.	.
.	.	.	.	.	16d/JJ|	.	16b-\JJ	.	.	.	.	.	.	.	.	.	.	.	.	.	.	.
!	!	!	!	!	!LO:LB:g=original	!	!	!	!	!	!LO:LB:g=original	!	!	!	!	!	!	!	!	!	!	!
=80	=80	=80	=80	=80	=80	=80	=80	=80	=80	=80	=80	=80	=80	=80	=80	=80	=80	=80	=80	=80	=80	=80
*	*	*	*	*	*	*	*	*	*	*	*	*	*	*	*ij	*	*	*	*	*	*	*
!	!	!	!	!	!	!	!LO:TX:t=P:problem=tt. 79-82 zapisane repetycją	!	!	!	!	!	!	!	!	!	!	!	!	!	!	!
8BB-/L	.	.	8d\L	.	(16d/LL	.	(y16b-/LLyy	.	2ryy	2ryy	2f\	Je-	.	2a-X\	Je-	.	2ryy	2ryy	2ff\	.	2aa-X\	.
.	.	.	.	.	16f/)	.	16a-X/)yy	.	.	.	.	.	.	.	.	.	.	.	.	.	.	.
8BB-/	.	.	8d\	.	16f/|	.	16a-/|yy	.	.	.	.	.	.	.	.	.	.	.	.	.	.	.
.	.	.	.	.	16f/JJ|	.	16a-/JJ|yy	.	.	.	.	.	.	.	.	.	.	.	.	.	.	.
8BB-/	.	.	8d\	.	(16d/LL	.	(y16f/LLyy	.	.	.	.	.	.	.	.	.	.	.	.	.	.	.
.	.	.	.	.	16f/)	.	16a-/)yy	.	.	.	.	.	.	.	.	.	.	.	.	.	.	.
8BB-/J	.	.	8d\J	.	16f/|	.	16a-/|yy	.	.	.	.	.	.	.	.	.	.	.	.	.	.	.
.	.	.	.	.	16f/JJ|	.	16a-/JJ|yy	.	.	.	.	.	.	.	.	.	.	.	.	.	.	.
!	!	!	!	!	!	!	!	!	!	!	!	!	!	!	!	!	!	!	!LO:LB:g=original	!	!	!
=81	=81	=81	=81	=81	=81	=81	=81	=81	=81	=81	=81	=81	=81	=81	=81	=81	=81	=81	=81	=81	=81	=81
!	!	!	!	!	!	!	!LO:SIC:s=(16f#LL	!	!	!	!	!	!	!	!	!	!	!	!	!	!	!
8BB-/L	.	.	8B-/L	.	(16d/LL	.	16f#X/LLyy	.	2ryy	2ryy	2e-\	-su	.	2g\	-su	.	2ryy	2ryy	[<2ee-\	.	2gg\	.
!	!	!	!	!	!	!	!LO:TX:b:t=g:mod=	!	!	!	!	!	!	!	!	!	!	!	!	!	!	!
!	!	!	!	!	!	!	!LO:SIC:s=16g)	!	!	!	!	!	!	!	!	!	!	!	!	!	!	!
.	.	.	.	.	16e-/)	.	16g/yy	.	.	.	.	.	.	.	.	.	.	.	.	.	.	.
!	!	!	!	!	!	!	!LO:TX:b:t=g:mod=	!	!	!	!	!	!	!	!	!	!	!	!	!	!	!
8BB-/	.	.	8B-/	.	16e-/|	.	16g/yy	.	.	.	.	.	.	.	.	.	.	.	.	.	.	.
!	!	!	!	!	!	!	!LO:TX:b:t=g:mod=	!	!	!	!	!	!	!	!	!	!	!	!	!	!	!
.	.	.	.	.	16e-/JJ|	.	16g/JJyy	.	.	.	.	.	.	.	.	.	.	.	.	.	.	.
!	!	!	!	!	!	!	!LO:SIC:s=(16f#LL	!	!	!	!	!	!	!	!	!	!	!	!	!	!	!
8BB-/	.	.	8B-/	.	(16d/LL	.	16f#/LLyy	.	.	.	.	.	.	.	.	.	.	.	.	.	.	.
!	!	!	!	!	!	!	!LO:SIC:s=16g)	!	!	!	!	!	!	!	!	!	!	!	!	!	!	!
.	.	.	.	.	16e-/)	.	16g/yy	.	.	.	.	.	.	.	.	.	.	.	.	.	.	.
8BB-/J	.	.	8B-/J	.	16e-/|	.	16g/yy	.	.	.	.	.	.	.	.	.	.	.	.	.	.	.
.	.	.	.	.	16e-/JJ|	.	16g/JJyy	.	.	.	.	.	.	.	.	.	.	.	.	.	.	.
=82	=82	=82	=82	=82	=82	=82	=82	=82	=82	=82	=82	=82	=82	=82	=82	=82	=82	=82	=82	=82	=82	=82
!	!	!	!	!	!	!	!LO:SIC:s=(16ee-LL	!	!	!	!	!	!	!	!	!	!	!	!	!	!	!
8BB-/L	.	.	8F/L	.	(16c/LL	.	16ee-\LLyy	.	2ryy	2ryy	2e-\	Chri-	.	2a\	Chri-	.	2ryy	2ryy	2ee-\]	.	2aan\	.
!	!	!	!	!	!	!	!LO:SIC:s=16a)	!	!	!	!	!	!	!	!	!	!	!	!	!	!	!
.	.	.	.	.	16e-/)	.	16an/yy	.	.	.	.	.	.	.	.	.	.	.	.	.	.	.
8BB-/	.	.	8F/	.	16e-/|	.	16a/yy	.	.	.	.	.	.	.	.	.	.	.	.	.	.	.
.	.	.	.	.	16e-/JJ|	.	16a/JJyy	.	.	.	.	.	.	.	.	.	.	.	.	.	.	.
!	!	!	!	!	!	!	!LO:SIC:s=(16b-LL	!	!	!	!	!	!	!	!	!	!	!	!	!	!	!
8BB-/	.	.	8F/	.	(16c/LL	.	16b-/LLyy	.	.	.	.	.	.	.	.	.	.	.	.	.	.	.
!	!	!	!	!	!	!	!LO:SIC:s=16a)	!	!	!	!	!	!	!	!	!	!	!	!	!	!	!
.	.	.	.	.	16e-/)	.	16a/yy	.	.	.	.	.	.	.	.	.	.	.	.	.	.	.
*Xtremolo	*	*	*	*	*	*	*	*	*	*	*	*	*	*	*	*	*	*	*	*	*	*
8BB-/J	.	.	8F/J	.	16e-/|	.	16a/yy	.	.	.	.	.	.	.	.	.	.	.	.	.	.	.
.	.	.	.	.	16e-/JJ|	.	16a/JJyy	.	.	.	.	.	.	.	.	.	.	.	.	.	.	.
=83	=83	=83	=83	=83	=83	=83	=83	=83	=83	=83	=83	=83	=83	=83	=83	=83	=83	=83	=83	=83	=83	=83
!LO:TX:t=P:problem=mixed beam	!	!	!	!	!	!	!LO:SIC:s=(16ccLL	!	!	!	!	!	!	!	!	!	!	!	!	!	!	!
8BB-/L	.	.	8B-/L	.	(16e-/LL	.	16cc\LLyy	.	2ryy	2ryy	2d\	-ste	.	2b-\	-ste	.	2ryy	2ryy	8dd\	.	4bb-\	.
!	!	!	!	!	!	!	!LO:SIC:s=16b-)	!	!	!	!	!	!	!	!	!	!	!	!	!	!	!
.	.	.	.	.	16d/)	.	16b-\yy	.	.	.	.	.	.	.	.	.	.	.	.	.	.	.
8BB-/	.	.	8B-/	.	16d/|	.	16b-\yy	.	.	.	.	.	.	.	.	.	.	.	8r	.	.	.
.	.	.	.	.	16d/JJ|	.	16b-\JJyy	.	.	.	.	.	.	.	.	.	.	.	.	.	.	.
!	!	!	!	!	!	!	!LO:SIC:s=(16aLL	!	!	!	!	!	!	!	!	!	!	!	!	!	!	!
8BB-/	.	.	8B-/	.	(16c/LL	.	16a\LLyy	.	.	.	.	.	.	.	.	.	.	.	4r	.	4r	.
!	!	!	!	!	!	!	!LO:SIC:s=16b-)	!	!	!	!	!	!	!	!	!	!	!	!	!	!	!
.	.	.	.	.	16d/)	.	16b-\yy	.	.	.	.	.	.	.	.	.	.	.	.	.	.	.
*	*	*	*	*	*	*	*	*	*	*	*	*	*	*	*Xij	*	*	*	*	*	*	*
8B-\J	.	.	8B-/J	.	16d/|	.	16b-\yy	.	.	.	.	.	.	.	.	.	.	.	.	.	.	.
.	.	.	.	.	16d/JJ|	.	16b-\JJyy	.	.	.	.	.	.	.	.	.	.	.	.	.	.	.
*	*	*	*Xtremolo	*	*	*	*	*	*	*	*	*	*	*	*	*	*	*	*	*	*	*
!	!	!	!LO:LB:g=original	!	!	!	!	!	!	!	!	!	!	!LO:LB:g=original	!	!	!	!	!	!	!	!
=84	=84	=84	=84	=84	=84	=84	=84	=84	=84	=84	=84	=84	=84	=84	=84	=84	=84	=84	=84	=84	=84	=84
8c\L	6	.	8A/L	.	8f/L	.	8.ee-\L	.	2ryy	2ryy	4f\	Je-	.	8.ee-\L	Je-	.	2ryy	2ryy	1r	.	1r	.
8A\	6 5	.	8c/	.	8f/	.	.	.	.	.	.	.	.	.	.	.	.	.	.	.	.	.
.	.	.	.	.	.	.	16cc\Jk	.	.	.	.	.	.	16cc\Jk	.	.	.	.	.	.	.	.
8B-\	.	.	8B-/	.	8f/	.	16ee-\LL	.	.	.	8f\	-su	.	16ee-\LL	.	.	.	.	.	.	.	.
.	.	.	.	.	.	.	16dd\	.	.	.	.	.	.	16dd\JJ	.	.	.	.	.	.	.	.
8D\J	6	.	8d/J	.	8b-/J	.	16gg\	.	.	.	8r	.	.	16gg\LL	su	.	.	.	.	.	.	.
.	.	.	.	.	.	.	16ff\JJ	.	.	.	.	.	.	16ff\JJ	.	.	.	.	.	.	.	.
!LO:LB:g=original	!	!	!	!	!	!	!	!	!	!	!	!	!	!	!	!	!	!	!	!	!	!
=85	=85	=85	=85	=85	=85	=85	=85	=85	=85	=85	=85	=85	=85	=85	=85	=85	=85	=85	=85	=85	=85	=85
*	*	*	*	*	*	*	*	*	*	*	*	*ij	*	*	*ij	*	*	*	*	*	*	*
!LO:TX:t=P:problem=mixed beam	!	!	!LO:TX:t=P:problem=mixed beam	!	!	!	!	!	!	!	!	!	!	!	!	!	!	!	!	!	!	!
8E-\L	3	.	8e-\L	.	8b-/L	.	16ff#X\LL	.	2ryy	2ryy	8b-\	Je-	.	16ff#X\LL	Je-	.	2ryy	2ryy	.	.	.	.
.	.	.	.	.	.	.	16gg\	.	.	.	.	.	.	16gg\JJ	.	.	.	.	.	.	.	.
8E-\	6	.	8e-\	.	16g/L	.	16ee-\	.	.	.	16g\LL	-su	.	16ee-\LL	-su	.	.	.	.	.	.	.
*	*	*	*	*	*	*	*	*	*	*	*	*Xij	*	*	*Xij	*	*	*	*	*	*	*
.	.	.	.	.	16e-/JJ	.	16cc\JJ	.	.	.	16e-\JJ	.	.	16cc\JJ	.	.	.	.	.	.	.	.
!	!	!	!	!	!	!	!	!	!	!	!	!LO:MO:mod=Chris-	!	!	!LO:MO:mod=Chris-	!	!	!	!	!	!	!
8F\	4	.	8f\	.	8d/L	.	8b-/L	.	.	.	8d\L	X-	.	8b-\L	X-	.	.	.	.	.	.	.
8FF/J	3	.	8F/J	.	8c/J	.	8a/J	.	.	.	8c\J	.	.	8a\J	.	.	.	.	.	.	.	.
=86	=86	=86	=86	=86	=86	=86	=86	=86	=86	=86	=86	=86	=86	=86	=86	=86	=86	=86	=86	=86	=86	=86
8BB-/L	.	.	8B-\L	.	8d/L	.	8b-\L	.	2ryy	2ryy	8d,<\	-te	.	8b-,<\	-te	.	2ryy	2ryy	8dd\	.	8bb-\	.
8D/	.	.	8d\	.	8b-/	.	8bb-\J	.	.	.	4b-\	Je-	.	8bb-\	Je-	.	.	.	8r	.	8r	.
8E-/	.	.	8e-\	.	8b-/	.	16aa\LL	.	.	.	.	.	.	16aa\LL	.	.	.	.	4r	.	4r	.
.	.	.	.	.	.	.	16gg\	.	.	.	.	.	.	16gg\JJ	.	.	.	.	.	.	.	.
*	*	*	*	*	*custos:b	*	*	*	*	*	*	*	*	*	*	*	*	*	*	*	*	*
8E-/J	.	.	8e-\J	.	8b-/J	.	16ff\	.	.	.	8b-\	-su	.	16ff\LL	-su	.	.	.	.	.	.	.
.	.	.	.	.	.	.	16ee-\JJ	.	.	.	.	.	.	16ee-\JJ	.	.	.	.	.	.	.	.
!	!	!	!	!	!	!	!LO:LB:g=original	!	!	!	!	!	!	!	!	!	!	!	!	!	!	!
=87	=87	=87	=87	=87	=87	=87	=87	=87	=87	=87	=87	=87	=87	=87	=87	=87	=87	=87	=87	=87	=87	=87
!	!	!LO:DY:a:t=for.	!	!	!	!	!	!	!	!	!	!LO:MO:mod=Chris-	!	!	!LO:MO:mod=Chris-	!	!	!	!	!	!	!LO:DY:t=p.
!	!	!	!	!	!	!	!	!	!	!	!	!	!	!	!	!	!	!	!	!	!	!LO:MO:null:mod=.
16F\LL	.	f	16f\LL	.	16b-/LL	.	16dd\LL	.	2ryy	2ryy	4b-\	X-	.	4dd\	X-	.	2ryy	2ryy	4bb-\	.	4ddd\	p
16F\	.	.	16f\	.	16b-/	.	16dd\	.	.	.	.	.	.	.	.	.	.	.	.	.	.	.
16F\	.	.	16f\	.	16b-/	.	16dd\	.	.	.	.	.	.	.	.	.	.	.	.	.	.	.
16F\JJ	.	.	16f\JJ	.	16b-/JJ	.	16dd\JJ	.	.	.	.	.	.	.	.	.	.	.	.	.	.	.
*	*	*	*	*	*	*	*tremolo	*	*	*	*	*	*	*	*	*	*	*	*	*	*	*
16FF/LL	.	.	16F/LL	.	16a/LL	.	16cc\LL	.	.	.	4a\	.	.	4cc\	.	.	.	.	4aa\	.	4ccc\	.
16FF/	.	.	16F/	.	16a/	.	16cc\	.	.	.	.	.	.	.	.	.	.	.	.	.	.	.
16FF/	.	.	16F/	.	16a/	.	16cc\	.	.	.	.	.	.	.	.	.	.	.	.	.	.	.
16FF/JJ	.	.	16F/JJ	.	16a/JJ	.	16cc\JJ	.	.	.	.	.	.	.	.	.	.	.	.	.	.	.
*	*	*	*	*	*	*	*Xtremolo	*	*	*	*	*	*	*	*	*	*	*	*	*	*	*
!	!	!	!	!	!	!	!	!	!	!	!	!	!	!	!	!	!	!	!	!	!LO:LB:g=original	!
=88	=88	=88	=88	=88	=88	=88	=88	=88	=88	=88	=88	=88	=88	=88	=88	=88	=88	=88	=88	=88	=88	=88
8BB-/	.	.	4B-/	.	16b-/LL	.	8b-\	.	2ryy	2ryy	4b-\	-te.	.	8b-\	-te.	.	2ryy	2ryy	8bb-\	.	8bb-\	.
!	!	!	!	!	!	!LO:DY:a:t=for.	!	!	!	!	!	!	!	!	!	!	!	!	!	!	!	!
.	.	.	.	.	16f/	f	.	.	.	.	.	.	.	.	.	.	.	.	.	.	.	.
8r	.	.	.	.	16f/	.	8r	.	.	.	.	.	.	8r	.	.	.	.	8r	.	8r	.
.	.	.	.	.	16f/JJ	.	.	.	.	.	.	.	.	.	.	.	.	.	.	.	.	.
*	*	*	*	*	*tremolo	*	*	*	*	*	*	*	*	*	*	*	*	*	*	*	*	*
4r	.	.	4r	.	16f/LL	.	16r	.	.	.	4r	.	.	4r	.	.	.	.	4r	.	4r	.
!	!	!	!	!	!	!	!	!LO:MO:null:mod=!LO&colon;DY&colon;ed=brack	!	!	!	!	!	!	!	!	!	!	!	!	!	!
!	!	!	!	!	!	!	!	!	!	!	!	!	!	!	!	!	!	!	!	!	!	!
!	!	!	!	!	!	!	!	!LO:MO:null:mod=f	!	!	!	!	!	!	!	!	!	!	!	!	!	!
.	.	.	.	.	16f/	.	16b-\LL	.	.	.	.	.	.	.	.	.	.	.	.	.	.	.
.	.	.	.	.	16f/	.	16dd\	.	.	.	.	.	.	.	.	.	.	.	.	.	.	.
.	.	.	.	.	16f/JJ	.	16b-\JJ	.	.	.	.	.	.	.	.	.	.	.	.	.	.	.
=89	=89	=89	=89	=89	=89	=89	=89	=89	=89	=89	=89	=89	=89	=89	=89	=89	=89	=89	=89	=89	=89	=89
!	!	!	!	!LO:MO:null:mod=!LO&colon;DY&colon;ed=brack	!	!	!	!	!	!	!	!	!	!	!	!	!	!	!	!LO:MO:null:mod=!LO&colon;DY&colon;ed=brack	!	!LO:MO:null:mod=!LO&colon;DY&colon;ed=brack
!	!	!	!	!	!	!	!	!	!	!	!	!	!	!	!	!	!	!	!	!	!	!
!	!	!LO:DY:b:t=for.	!	!LO:MO:null:mod=f	!	!	!LO:TX:t=P:problem=mixed beam	!	!	!	!	!	!	!	!	!	!	!	!	!LO:MO:null:mod=f	!	!LO:MO:null:mod=f
8F\L	7 5	f	8A/L	.	16f/LL	.	16ee-\LL	.	2ryy	2ryy	0r	.	.	0r	.	.	2ryy	2ryy	2cc\	.	2ee-\	.
.	.	.	.	.	16f/	.	16f/	.	.	.	.	.	.	.	.	.	.	.	.	.	.	.
8A\	.	.	8c/	.	16f/	.	16f/	.	.	.	.	.	.	.	.	.	.	.	.	.	.	.
.	.	.	.	.	16f/	.	16f/JJ	.	.	.	.	.	.	.	.	.	.	.	.	.	.	.
!	!	!	!	!	!	!	!LO:TX:t=P:problem=mixed beam	!	!	!	!	!	!	!	!	!	!	!	!	!	!	!
8c\	.	.	8A/	.	16f/	.	16f/LL	.	.	.	.	.	.	.	.	.	.	.	.	.	.	.
.	.	.	.	.	16f/	.	16cc\	.	.	.	.	.	.	.	.	.	.	.	.	.	.	.
8A\J	.	.	8c/J	.	16f/	.	16ee-\	.	.	.	.	.	.	.	.	.	.	.	.	.	.	.
.	.	.	.	.	16f/JJ	.	16cc\JJ	.	.	.	.	.	.	.	.	.	.	.	.	.	.	.
!	!	!	!	!	!	!	!LO:LB:g=original	!	!	!	!	!	!	!	!	!	!	!	!	!	!	!
=90	=90	=90	=90	=90	=90	=90	=90	=90	=90	=90	=90	=90	=90	=90	=90	=90	=90	=90	=90	=90	=90	=90
8F\L	6 4	.	8B-/L	.	16f/LL	.	16dd\LL	.	2ryy	2ryy	.	.	.	.	.	.	2ryy	2ryy	2b-\	.	2dd\	.
.	.	.	.	.	16f/	.	16ff\	.	.	.	.	.	.	.	.	.	.	.	.	.	.	.
8B-\	.	.	8d/	.	16f/	.	16b-\	.	.	.	.	.	.	.	.	.	.	.	.	.	.	.
.	.	.	.	.	16f/	.	16b-\JJ	.	.	.	.	.	.	.	.	.	.	.	.	.	.	.
8d\	.	.	8B-/	.	16f/	.	16f/LL	.	.	.	.	.	.	.	.	.	.	.	.	.	.	.
.	.	.	.	.	16f/	.	16b-/	.	.	.	.	.	.	.	.	.	.	.	.	.	.	.
8B-\J	.	.	8d/J	.	16f/	.	16dd/	.	.	.	.	.	.	.	.	.	.	.	.	.	.	.
.	.	.	.	.	16f/JJ	.	16b-/JJ	.	.	.	.	.	.	.	.	.	.	.	.	.	.	.
=91	=91	=91	=91	=91	=91	=91	=91	=91	=91	=91	=91	=91	=91	=91	=91	=91	=91	=91	=91	=91	=91	=91
!	!	!	!	!	!	!	!LO:TX:t=P:problem=mixed beam	!	!	!	!	!	!	!	!	!	!	!	!	!	!	!
8F\L	.	.	8A/L	.	16f/LL	.	16ee-\LL	.	2ryy	2ryy	.	.	.	.	.	.	2ryy	2ryy	2cc\	.	2ee-\	.
.	.	.	.	.	16f/	.	16f/	.	.	.	.	.	.	.	.	.	.	.	.	.	.	.
8A\	6	.	8c/	.	16f/	.	16f/	.	.	.	.	.	.	.	.	.	.	.	.	.	.	.
.	.	.	.	.	16f/	.	16f/JJ	.	.	.	.	.	.	.	.	.	.	.	.	.	.	.
!	!	!	!	!	!	!	!LO:TX:t=P:problem=mixed beam	!	!	!	!	!	!	!	!	!	!	!	!	!	!	!
8c\	4	.	8A/	.	16f/	.	16f/LL	.	.	.	.	.	.	.	.	.	.	.	.	.	.	.
.	.	.	.	.	16f/	.	16cc\	.	.	.	.	.	.	.	.	.	.	.	.	.	.	.
8A\J	n	.	8c/J	.	16f/	.	16ee-\	.	.	.	.	.	.	.	.	.	.	.	.	.	.	.
.	.	.	.	.	16f/JJ	.	16cc\JJ	.	.	.	.	.	.	.	.	.	.	.	.	.	.	.
*	*	*	*	*	*Xtremolo	*	*	*	*	*	*	*	*	*	*	*	*	*	*	*	*	*
=92	=92	=92	=92	=92	=92	=92	=92	=92	=92	=92	=92	=92	=92	=92	=92	=92	=92	=92	=92	=92	=92	=92
!LO:TX:t=P:problem=mixed beam	!	!	!LO:TX:t=P:problem=mixed beam	!	!	!	!	!	!	!	!	!	!	!	!	!	!	!	!	!	!	!
8B-\L	.	.	8B-\L	.	8f/L	.	16dd\LL	.	2ryy	2ryy	.	.	.	.	.	.	2ryy	2ryy	8b-\L	.	8dd\L	.
.	.	.	.	.	.	.	16bb-\	.	.	.	.	.	.	.	.	.	.	.	.	.	.	.
8E-\	.	.	8e-\	.	16b-/L	.	16gg\	.	.	.	.	.	.	.	.	.	.	.	8ee-\	.	8gg\	.
.	.	.	.	.	16g/JJ	.	16ee-\JJ	.	.	.	.	.	.	.	.	.	.	.	.	.	.	.
8F\	.	.	8f\	.	8f/L	.	16dd\LL	.	.	.	.	.	.	.	.	.	.	.	8dd\	.	8bb-\	.
.	.	.	.	.	.	.	16b-\	.	.	.	.	.	.	.	.	.	.	.	.	.	.	.
!	!	!	!	!	!LO:SIC:v:s=16fL	!	!	!	!	!	!	!	!	!	!	!	!	!	!	!	!	!
8FF/J	.	.	8F/J	.	16g/L	.	16ee-\	.	.	.	.	.	.	.	.	.	.	.	8cc\J	.	8aa\J	.
.	.	.	.	.	16e-/JJ	.	16cc\JJ	.	.	.	.	.	.	.	.	.	.	.	.	.	.	.
=93	=93	=93	=93	=93	=93	=93	=93	=93	=93	=93	=93	=93	=93	=93	=93	=93	=93	=93	=93	=93	=93	=93
8BB-/L	.	.	8B-/L	.	8d/L	.	8b-/L	.	2ryy	2ryy	2r	.	.	2r	.	.	2ryy	2ryy	4dd\	.	4bb-\	.
8FF/	.	.	8F/	.	8f/	.	8f/	.	.	.	.	.	.	.	.	.	.	.	.	.	.	.
8BB-/J	.	.	8B-/J	.	8B-/J	.	8B-/J	.	.	.	.	.	.	.	.	.	.	.	4r	.	4r	.
8r	.	.	8r	.	8r	.	8r	.	.	.	.	.	.	.	.	.	.	.	.	.	.	.
==	==	==	==	==	==	==	==	==	==	==	==	==	==	==	==	==	==	==	==	==	==	==
*-	*-	*-	*-	*-	*-	*-	*-	*-	*-	*-	*-	*-	*-	*-	*-	*-	*-	*-	*-	*-	*-	*-
!!!system-decoration: [(g1)][(g2)][(g3)][(g4)]s12
!!!RDF**kern: > = above
!!!RDF**kern: < = below
!!!ENC: Krzysztof Stępień
!!!END: 2020-10-02
!!!EED: Andrzej Borzym
!!!EEV: 2022-01-15
!!!YEC: Copyright 2022 Narodowy Instytut Fryderyka Chopina (https://polishscores.org)
!!!YEM: License CC-BY-4.0 (https://creativecommons.org/licenses/by/4.0)
!!!ENC-modern: Andrzej Borzym
!!!END-modern: 2022-11-28
